; generated by PrusaSlicer 2.6.1+win64 on 2023-12-12 at 16:54:47 UTC


;
;
; 

; external perimeters extrusion width = 0.68mm
; perimeters extrusion width = 0.68mm
; infill extrusion width = 0.68mm
; solid infill extrusion width = 0.68mm
; top infill extrusion width = 0.60mm
; first layer extrusion width = 0.65mm

M73 P0 R60
M73 Q0 S61
M201 X1000 Y1000 Z200 E5000 ; sets maximum accelerations, mm/sec^2
M203 X200 Y200 Z12 E120 ; sets maximum feedrates, mm / sec
M204 S1250 T1250 ; sets acceleration (S) and retract acceleration (R), mm/sec^2
M205 X8.00 Y8.00 Z0.40 E4.50 ; sets the jerk limits, mm/sec
M205 S0 T0 ; sets the minimum extruding and travel feed rate, mm/sec
;TYPE:Custom
M862.3 P "MK3S" ; printer model check
M862.1 P0.6 ; nozzle diameter check
M115 U3.13.2 ; tell printer latest fw version
G90 ; use absolute coordinates
M83 ; extruder relative mode
M104 S215 ; set extruder temp
M140 S60 ; set bed temp
M190 S60 ; wait for bed temp
M109 S215 ; wait for extruder temp
G28 W ; home all without mesh bed level
G80 ; mesh bed leveling

G1 Z0.2 F720
G1 Y-3 F1000 ; go outside print area
G92 E0
G1 X60 E9 F1000 ; intro line
G1 X100 E12.5 F1000 ; intro line

G92 E0
M221 S95
G21 ; set units to millimeters
G90 ; use absolute coordinates
M83 ; use relative distances for extrusion
M900 K0.04 ; Filament gcode LA 1.5
M900 K18 ; Filament gcode LA 1.0

M107
;LAYER_CHANGE
;Z:0.2
;HEIGHT:0.2
;BEFORE_LAYER_CHANGE
G92 E0.0
;0.2


G1 E-.8 F2100
G1 Z.4 F720
;AFTER_LAYER_CHANGE
;0.2
G1 X79.023 Y44.642 F10800
G1 Z.2 F720
G1 E.8 F1500
M204 S800
;TYPE:Skirt/Brim
;WIDTH:0.65
G1 F1200
G1 X79.52 Y43.764 E.05093
G1 X80.46 Y42.468 E.08082
G1 X81.984 Y40.974 E.10773
G1 X82.852 Y40.331 E.05453
G1 X84.238 Y39.53 E.08081
G1 X86.238 Y38.785 E.10773
G1 X87.292 Y38.551 E.0545
G1 X88.642 Y38.399 E.06858
G1 X160.096 Y38.398 E3.60692
G1 X162.256 Y38.479 E.10911
G1 X164.099 Y38.883 E.09524
G1 X164.866 Y39.154 E.04106
G1 X166.329 Y39.834 E.08144
G1 X168.097 Y41.056 E.10849
G1 X168.898 Y41.792 E.05491
G1 X169.783 Y42.796 E.06756
G1 X170.412 Y43.683 E.05489
G1 X171.401 Y45.592 E.10853
G1 X171.959 Y47.394 E.09522
G1 X172.102 Y48.195 E.04107
G1 X172.232 Y49.762 E.07937
G1 X172.194 Y95.823 E2.32511
G1 X171.777 Y98.093 E.1165
M73 Q0 S60
G1 X152.317 Y166.737 E3.60162
G1 X151.652 Y167.87 E.06632
G1 X148.665 Y170.857 E.21324
G1 X146.821 Y171.621 E.10076
G1 X102.996 Y171.621 E2.21224
G1 X101.153 Y170.857 E.10071
G1 X98.165 Y167.87 E.21327
G1 X97.499 Y166.732 E.06656
G1 X78.204 Y98.087 E3.59941
G1 X77.887 Y96.624 E.07556
G1 X77.774 Y95.551 E.05446
G1 X77.769 Y49.305 E2.33445
G1 X77.871 Y48.254 E.0533
G1 X78.204 Y46.688 E.08082
G1 X78.981 Y44.722 E.10671
M204 S1000
;WIPE_START
G1 F8640
G1 X79.52 Y43.764 E-.25381
G1 X80.46 Y42.468 E-.36968
G1 X81.006 Y41.933 E-.17651
;WIPE_END
G1 Z.6 F720
G1 X81.822 Y45.874 F10800
G1 Z.2 F720
G1 E.8 F1500
M204 S800
G1 F1200
G1 X82.932 Y44.285 E.09784
G1 X84.372 Y42.992 E.09769
G1 X86.049 Y42.068 E.09665
G1 X87.737 Y41.572 E.08881
G1 X89.199 Y41.436 E.07412
G1 X90.656 Y41.549 E.07377
G1 X92.626 Y42.135 E.10375
G1 X94.416 Y43.189 E.10486
G1 X102.46 Y50.477 E.54792
G1 X102.88 Y50.207 E.0252
G1 X103.664 Y49.871 E.04306
G1 X104.738 Y49.661 E.05524
G1 X145.081 Y49.661 E2.03647
G1 X146.092 Y49.852 E.05194
G1 X146.99 Y50.237 E.04932
G1 X147.701 Y50.732 E.04373
G1 X148.25 Y51.275 E.03898
G1 X148.652 Y51.813 E.0339
G1 X154.028 Y44.731 E.44883
G1 X155.094 Y43.582 E.07912
G1 X156.461 Y42.588 E.08532
G1 X158.015 Y41.88 E.0862
G1 X160.023 Y41.464 E.10351
G1 X161.672 Y41.488 E.08325
G1 X163.342 Y41.851 E.08627
G1 X165.022 Y42.612 E.0931
G1 X166.334 Y43.567 E.08192
G1 X167.469 Y44.795 E.08441
G1 X168.438 Y46.437 E.09624
G1 X169.028 Y48.326 E.0999
G1 X169.165 Y50.308 E.10029
G1 X168.96 Y51.776 E.07482
G1 X168.505 Y53.185 E.07474
G1 X167.622 Y54.764 E.09132
G1 X149.362 Y75.625 E1.39947
G1 X149.362 Y86.433 E.54558
G1 X160.836 Y86.433 E.57919
G1 X162.511 Y86.627 E.08512
G1 X164.098 Y87.139 E.08418
G1 X165.727 Y88.076 E.09486
G1 X166.972 Y89.197 E.08457
G1 X167.99 Y90.572 E.08636
G1 X168.821 Y92.467 E.10445
G1 X169.125 Y93.979 E.07785
G1 X169.156 Y95.473 E.07543
G1 X168.73 Y97.587 E.10886
G1 X167.967 Y99.238 E.09181
G1 X167.018 Y100.525 E.08072
G1 X165.876 Y101.583 E.07858
G1 X164.273 Y102.555 E.09463
G1 X162.582 Y103.129 E.09014
M73 P1 R60
M73 Q1 S60
G1 X160.834 Y103.339 E.08887
G1 X149.362 Y103.339 E.57909
G1 X149.362 Y164.285 E3.07649
G1 X149.141 Y165.393 E.05703
G1 X148.88 Y166.017 E.03414
G1 X148.549 Y166.58 E.03297
G1 X147.725 Y167.473 E.06134
G1 X146.781 Y168.101 E.05723
G1 X145.938 Y168.421 E.04552
G1 X145.076 Y168.567 E.04413
G1 X133.644 Y168.567 E.57707
G1 X132.82 Y168.433 E.04214
G1 X132.012 Y168.143 E.04333
G1 X131.063 Y167.543 E.05668
G1 X130.425 Y166.921 E.04498
G1 X129.915 Y166.187 E.04512
G1 X129.612 Y165.528 E.03661
G1 X129.418 Y164.83 E.03657
G1 X129.3 Y163.488 E.068
G1 X129.164 Y162.864 E.03224
G1 X128.943 Y162.271 E.03195
G1 X128.64 Y161.716 E.03192
G1 X128.261 Y161.209 E.03195
G1 X127.813 Y160.762 E.03195
G1 X127.307 Y160.382 E.03194
G1 X126.751 Y160.079 E.03196
G1 X126.158 Y159.858 E.03195
G1 X125.54 Y159.724 E.03192
G1 X124.909 Y159.678 E.03194
G1 X124.277 Y159.724 E.03199
G1 X123.659 Y159.858 E.03192
G1 X123.066 Y160.079 E.03195
G1 X122.511 Y160.382 E.03192
G1 X122.004 Y160.762 E.03198
G1 X121.556 Y161.209 E.03195
G1 X121.177 Y161.716 E.03195
G1 X120.874 Y162.271 E.03192
G1 X120.653 Y162.864 E.03195
G1 X120.515 Y163.5 E.03285
G1 X120.361 Y165.025 E.07737
G1 X120.152 Y165.663 E.03389
G1 X119.834 Y166.305 E.03617
G1 X119.319 Y167.003 E.04379
G1 X118.671 Y167.61 E.04482
G1 X117.92 Y168.086 E.04488
G1 X117.133 Y168.396 E.0427
G1 X116.176 Y168.567 E.04907
G1 X104.482 Y168.54 E.5903
G1 X103.627 Y168.345 E.04427
G1 X103.005 Y168.085 E.03403
G1 X102.443 Y167.754 E.03292
G1 X101.55 Y166.931 E.0613
G1 X100.921 Y165.987 E.05726
G1 X100.602 Y165.143 E.04555
G1 X100.456 Y164.282 E.04408
G1 X100.456 Y103.339 E3.07633
G1 X89.149 Y103.339 E.57076
G1 X87.338 Y103.115 E.09211
G1 X85.647 Y102.527 E.09037
G1 X84.217 Y101.668 E.08421
G1 X82.967 Y100.526 E.08547
G1 X81.858 Y98.965 E.09666
G1 X81.177 Y97.353 E.08834
G1 X80.843 Y95.652 E.0875
G1 X80.844 Y94.115 E.07759
G1 X81.128 Y92.576 E.079
G1 X82.021 Y90.525 E.11292
G1 X83.142 Y89.055 E.09332
G1 X84.359 Y88 E.0813
G1 X85.805 Y87.173 E.08409
G1 X87.399 Y86.642 E.08481
G1 X89.146 Y86.433 E.08882
G1 X100.456 Y86.433 E.57092
G1 X100.456 Y71.402 E.75875
G1 X83.183 Y55.764 E1.17617
G1 X81.944 Y54.115 E.10412
G1 X81.149 Y52.264 E.10169
G1 X80.832 Y50.534 E.08878
G1 X80.847 Y49.078 E.0735
G1 X81.111 Y47.64 E.0738
G1 X81.789 Y45.957 E.09159
M204 S1000
G1 X82.351 Y46.185 F10800
M204 S800
G1 F1200
G1 X83.408 Y44.663 E.09354
G1 X84.697 Y43.506 E.08743
G1 X86.254 Y42.64 E.08993
G1 X87.825 Y42.173 E.08273
G1 X89.179 Y42.044 E.06866
G1 X90.576 Y42.152 E.07073
G1 X92.416 Y42.706 E.097
G1 X94.031 Y43.659 E.09466
G1 X102.407 Y51.249 E.57058
G1 X103.147 Y50.753 E.04497
G1 X103.873 Y50.442 E.03987
G1 X104.767 Y50.268 E.04597
G1 X145.051 Y50.268 E2.03349
G1 X145.941 Y50.441 E.04577
G1 X146.719 Y50.781 E.04286
G1 X147.292 Y51.182 E.0353
G1 X147.805 Y51.688 E.03637
G1 X148.211 Y52.248 E.03492
G1 X148.541 Y52.964 E.0398
G1 X154.502 Y45.111 E.49768
G1 X155.518 Y44.018 E.07533
G1 X156.791 Y43.099 E.07925
G1 X158.234 Y42.447 E.07993
G1 X160.047 Y42.071 E.09347
G1 X161.632 Y42.095 E.08002
G1 X163.18 Y42.437 E.08003
G1 X164.69 Y43.121 E.08368
G1 X165.952 Y44.04 E.07881
G1 X167 Y45.182 E.07824
G1 X167.87 Y46.654 E.08631
G1 X168.425 Y48.406 E.09277
G1 X168.559 Y50.258 E.09373
G1 X168.374 Y51.615 E.06913
G1 X167.937 Y52.969 E.07182
G1 X167.109 Y54.438 E.08512
G1 X148.755 Y75.397 E1.40631
G1 X148.755 Y87.04 E.58773
M73 P1 R59
G1 X160.818 Y87.04 E.60893
G1 X162.411 Y87.226 E.08096
G1 X163.825 Y87.682 E.075
G1 X165.345 Y88.549 E.08833
G1 X166.542 Y89.627 E.08131
G1 X167.481 Y90.904 E.08001
G1 X168.233 Y92.621 E.09462
G1 X168.519 Y94.019 E.07203
G1 X168.548 Y95.451 E.0723
G1 X168.142 Y97.43 E.10198
G1 X167.46 Y98.904 E.08198
G1 X166.583 Y100.1 E.07486
G1 X165.486 Y101.117 E.07551
G1 X164.045 Y101.992 E.0851
G1 X162.476 Y102.531 E.08374
G1 X160.815 Y102.732 E.08446
G1 X148.755 Y102.732 E.60878
G1 X148.755 Y164.255 E3.10561
G1 X148.569 Y165.188 E.04802
G1 X148.346 Y165.728 E.02949
G1 X148.042 Y166.244 E.03023
G1 X147.356 Y166.99 E.05116
G1 X146.529 Y167.548 E.05036
G1 X145.803 Y167.828 E.03928
G1 X145.049 Y167.96 E.03864
G1 X133.67 Y167.96 E.5744
G1 X132.95 Y167.84 E.03685
G1 X132.252 Y167.584 E.03753
G1 X131.461 Y167.084 E.04724
G1 X130.904 Y166.547 E.03906
G1 X130.455 Y165.908 E.03942
G1 X130.175 Y165.298 E.03388
G1 X130.011 Y164.698 E.0314
G1 X129.902 Y163.398 E.06585
G1 X129.748 Y162.693 E.03643
G1 X129.497 Y162.018 E.03635
G1 X129.152 Y161.387 E.0363
G1 X128.721 Y160.811 E.03631
G1 X128.212 Y160.302 E.03634
G1 X127.636 Y159.87 E.03634
G1 X127.004 Y159.526 E.03632
G1 X126.33 Y159.274 E.03632
G1 X125.626 Y159.121 E.03637
G1 X124.909 Y159.07 E.03628
G1 X124.191 Y159.121 E.03634
G1 X123.487 Y159.274 E.03637
G1 X122.813 Y159.526 E.03632
G1 X122.182 Y159.87 E.03628
G1 X121.605 Y160.302 E.03639
G1 X121.097 Y160.811 E.0363
G1 X120.665 Y161.387 E.03634
G1 X120.32 Y162.018 E.0363
G1 X120.069 Y162.693 E.03635
G1 X119.914 Y163.406 E.03683
G1 X119.773 Y164.871 E.07429
G1 X119.596 Y165.418 E.02902
G1 X119.328 Y165.967 E.03084
G1 X118.848 Y166.619 E.04087
G1 X118.28 Y167.146 E.03911
G1 X117.667 Y167.534 E.03662
G1 X116.991 Y167.805 E.03676
G1 X116.148 Y167.96 E.04327
G1 X104.581 Y167.941 E.58389
G1 X103.834 Y167.774 E.03864
G1 X103.295 Y167.551 E.02944
G1 X102.778 Y167.247 E.03027
G1 X102.032 Y166.561 E.05116
G1 X101.475 Y165.735 E.05029
G1 X101.194 Y165.008 E.03934
G1 X101.063 Y164.255 E.03858
G1 X101.063 Y102.732 E3.10561
G1 X89.167 Y102.732 E.6005
G1 X87.506 Y102.531 E.08446
G1 X85.878 Y101.964 E.08702
G1 X84.559 Y101.165 E.07784
G1 X83.402 Y100.102 E.07931
G1 X82.373 Y98.642 E.09016
G1 X81.766 Y97.204 E.07879
G1 X81.45 Y95.621 E.08148
G1 X81.451 Y94.143 E.07461
G1 X81.718 Y92.722 E.07299
G1 X82.527 Y90.862 E.10239
G1 X83.564 Y89.493 E.08669
G1 X84.734 Y88.479 E.07815
G1 X86.078 Y87.716 E.07801
G1 X87.559 Y87.229 E.0787
G1 X89.164 Y87.04 E.08158
G1 X101.063 Y87.04 E.60065
G1 X101.063 Y71.133 E.80297
G1 X83.611 Y55.333 E1.18836
M73 P2 R59
M73 Q2 S60
G1 X82.486 Y53.84 E.09437
M73 Q2 S59
G1 X81.74 Y52.118 E.09473
G1 X81.44 Y50.51 E.08257
G1 X81.454 Y49.111 E.07062
G1 X81.702 Y47.782 E.06824
G1 X82.317 Y46.269 E.08244
M204 S1000
G1 X82.878 Y46.499 F10800
M204 S800
G1 F1200
G1 X82.92 Y46.398 E.00552
G1 X83.841 Y45.09 E.08075
G1 X85.025 Y44.018 E.08062
G1 X86.462 Y43.212 E.08317
G1 X87.913 Y42.775 E.07649
G1 X89.21 Y42.65 E.06577
G1 X90.494 Y42.754 E.06503
G1 X92.141 Y43.248 E.0868
G1 X93.647 Y44.13 E.0881
G1 X102.458 Y52.114 E.60021
G1 X102.967 Y51.604 E.03637
G1 X103.414 Y51.299 E.02732
G1 X104.082 Y51.013 E.03668
G1 X104.796 Y50.875 E.03671
G1 X145.02 Y50.875 E2.03046
G1 X145.788 Y51.03 E.03955
G1 X146.395 Y51.295 E.03343
G1 X146.922 Y51.664 E.03248
G1 X147.357 Y52.099 E.03105
G1 X147.697 Y52.572 E.0294
G1 X148.017 Y53.308 E.04051
G1 X148.238 Y54.366 E.05456
G1 X154.976 Y45.49 E.56253
G1 X155.942 Y44.453 E.07154
G1 X157.069 Y43.639 E.07018
G1 X158.453 Y43.014 E.07666
G1 X160.071 Y42.679 E.08341
G1 X161.591 Y42.701 E.07674
G1 X163.016 Y43.022 E.07373
G1 X164.358 Y43.63 E.07437
G1 X165.569 Y44.512 E.07562
G1 X166.53 Y45.567 E.07204
G1 X167.303 Y46.873 E.07661
G1 X167.823 Y48.489 E.08569
G1 X167.953 Y50.208 E.08702
G1 X167.776 Y51.506 E.06613
G1 X167.369 Y52.751 E.06612
G1 X166.596 Y54.111 E.07897
G1 X148.148 Y75.168 E1.41316
G1 X148.148 Y87.647 E.62993
G1 X160.801 Y87.647 E.63871
G1 X162.257 Y87.814 E.07398
G1 X163.555 Y88.226 E.06874
G1 X164.964 Y89.023 E.08171
G1 X166.112 Y90.057 E.07799
G1 X166.971 Y91.234 E.07355
G1 X167.645 Y92.773 E.08481
G1 X167.918 Y94.113 E.06903
G1 X167.941 Y95.426 E.06629
G1 X167.555 Y97.271 E.09515
G1 X166.951 Y98.571 E.07236
G1 X166.148 Y99.675 E.06891
G1 X165.096 Y100.651 E.07244
G1 X163.814 Y101.43 E.07572
G1 X162.369 Y101.932 E.07722
G1 X160.797 Y102.125 E.07995
G1 X148.148 Y102.125 E.63851
G1 X148.148 Y164.225 E3.13474
G1 X147.997 Y164.984 E.03906
G1 X147.793 Y165.475 E.02684
G1 X147.537 Y165.904 E.02522
G1 X146.936 Y166.551 E.04458
G1 X146.276 Y166.996 E.04018
G1 X145.664 Y167.237 E.0332
G1 X145.021 Y167.353 E.03298
G1 X133.697 Y167.353 E.57162
G1 X133.083 Y167.247 E.03145
G1 X132.495 Y167.027 E.03169
G1 X131.86 Y166.626 E.03791
G1 X131.346 Y166.13 E.03606
G1 X130.994 Y165.626 E.03103
G1 X130.753 Y165.112 E.02866
G1 X130.604 Y164.566 E.02857
G1 X130.504 Y163.309 E.06365
G1 X130.332 Y162.521 E.04071
G1 X130.051 Y161.766 E.04067
G1 X129.664 Y161.058 E.04073
G1 X129.181 Y160.412 E.04072
G1 X128.61 Y159.842 E.04073
G1 X127.965 Y159.358 E.04071
G1 X127.257 Y158.972 E.04071
G1 X126.501 Y158.69 E.04073
G1 X125.713 Y158.519 E.0407
G1 X124.909 Y158.461 E.04069
G1 X124.104 Y158.519 E.04074
G1 X123.316 Y158.69 E.0407
G1 X122.56 Y158.972 E.04073
G1 X121.852 Y159.358 E.04071
G1 X121.207 Y159.842 E.04071
G1 X120.637 Y160.412 E.04069
G1 X120.153 Y161.058 E.04075
G1 X119.767 Y161.766 E.04071
G1 X119.485 Y162.521 E.04068
G1 X119.312 Y163.315 E.04102
G1 X119.185 Y164.719 E.07116
G1 X119.039 Y165.176 E.02422
G1 X118.82 Y165.635 E.02567
G1 X118.413 Y166.195 E.03495
G1 X117.888 Y166.681 E.03611
G1 X117.411 Y166.983 E.0285
G1 X116.846 Y167.215 E.03083
G1 X116.119 Y167.353 E.03735
G1 X104.677 Y167.341 E.57758
G1 X104.04 Y167.202 E.03291
G1 X103.548 Y166.999 E.02687
G1 X103.118 Y166.743 E.02526
G1 X102.472 Y166.141 E.04457
G1 X102.027 Y165.481 E.04018
G1 X101.786 Y164.869 E.0332
G1 X101.67 Y164.226 E.03298
G1 X101.67 Y102.125 E3.13479
G1 X89.186 Y102.125 E.63018
G1 X87.613 Y101.932 E.08
G1 X86.111 Y101.403 E.08038
G1 X84.902 Y100.663 E.07155
G1 X83.839 Y99.679 E.07312
G1 X82.89 Y98.322 E.08359
G1 X82.338 Y96.999 E.07236
G1 X82.057 Y95.59 E.07253
G1 X82.053 Y94.227 E.0688
G1 X82.309 Y92.868 E.06981
G1 X83.034 Y91.197 E.09195
G1 X83.986 Y89.93 E.08
G1 X85.108 Y88.959 E.0749
G1 X86.348 Y88.261 E.07183
G1 X87.717 Y87.816 E.07266
G1 X89.181 Y87.647 E.07439
G1 X101.67 Y87.647 E.63043
G1 X101.67 Y70.864 E.84719
G1 X84.041 Y54.903 E1.20044
G1 X82.993 Y53.505 E.0882
G1 X82.33 Y51.972 E.08431
G1 X82.047 Y50.484 E.07646
G1 X82.056 Y49.196 E.06502
G1 X82.293 Y47.924 E.06531
G1 X82.844 Y46.582 E.07323
M204 S1000
G1 X83.404 Y46.815 F10800
M204 S800
G1 F1200
G1 X83.467 Y46.663 E.00831
G1 X84.315 Y45.47 E.07388
G1 X85.405 Y44.493 E.07389
G1 X86.671 Y43.782 E.07329
G1 X88.004 Y43.376 E.07034
G1 X89.189 Y43.258 E.06011
G1 X90.412 Y43.357 E.06194
G1 X91.929 Y43.818 E.08003
G1 X93.263 Y44.601 E.07808
G1 X102.548 Y53.014 E.63248
G1 X102.816 Y52.621 E.02401
G1 X103.34 Y52.084 E.03787
G1 X103.688 Y51.842 E.0214
G1 X104.236 Y51.601 E.03022
G1 X104.827 Y51.482 E.03043
G1 X144.99 Y51.482 E2.02738
G1 X145.575 Y51.599 E.03011
G1 X146.124 Y51.839 E.03025
G1 X146.511 Y52.111 E.02388
G1 X146.908 Y52.509 E.02838
G1 X147.181 Y52.895 E.02387
G1 X147.444 Y53.513 E.0339
G1 X147.536 Y53.984 E.02422
G1 X147.541 Y55.607 E.08193
G1 X147.954 Y55.745 E.02198
G1 X155.433 Y45.891 E.62446
G1 X156.322 Y44.927 E.0662
G1 X157.398 Y44.15 E.067
G1 X158.67 Y43.582 E.07032
G1 X160.098 Y43.286 E.07362
G1 X161.492 Y43.301 E.07037
G1 X162.795 Y43.589 E.06736
G1 X164.078 Y44.17 E.0711
G1 X165.184 Y44.982 E.06926
G1 X166.058 Y45.95 E.06583
G1 X166.761 Y47.15 E.0702
G1 X167.233 Y48.638 E.0788
G1 X167.348 Y50.159 E.077
G1 X167.19 Y51.344 E.06035
G1 X166.802 Y52.532 E.06309
G1 X166.085 Y53.782 E.07274
G1 X147.54 Y74.94 E1.42022
G1 X147.54 Y88.254 E.67208
G1 X160.783 Y88.254 E.66849
G1 X162.156 Y88.413 E.06977
G1 X163.339 Y88.794 E.06274
G1 X164.583 Y89.496 E.0721
G1 X165.682 Y90.486 E.07467
G1 X166.459 Y91.563 E.06704
G1 X167.057 Y92.928 E.07523
G1 X167.312 Y94.152 E.06311
G1 X167.333 Y95.402 E.06311
G1 X166.969 Y97.11 E.08815
G1 X166.442 Y98.239 E.06289
G1 X165.713 Y99.251 E.06296
G1 X164.705 Y100.186 E.0694
G1 X163.585 Y100.867 E.06617
G1 X162.201 Y101.348 E.07396
G1 X160.779 Y101.518 E.07229
G1 X147.54 Y101.518 E.66829
G1 X147.54 Y164.195 E3.16386
