; generated by PrusaSlicer 2.6.1+win64 on 2023-12-12 at 11:35:43 UTC


;
;
; 

; external perimeters extrusion width = 0.68mm
; perimeters extrusion width = 0.68mm
; infill extrusion width = 0.68mm
; solid infill extrusion width = 0.68mm
; top infill extrusion width = 0.60mm
; first layer extrusion width = 0.65mm

M73 P0 R62
M73 Q0 S62
M201 X1000 Y1000 Z200 E5000 ; sets maximum accelerations, mm/sec^2
M203 X200 Y200 Z12 E120 ; sets maximum feedrates, mm / sec
M204 S1250 T1250 ; sets acceleration (S) and retract acceleration (R), mm/sec^2
M205 X8.00 Y8.00 Z0.40 E4.50 ; sets the jerk limits, mm/sec
M205 S0 T0 ; sets the minimum extruding and travel feed rate, mm/sec
;TYPE:Custom
M862.3 P "MK3S" ; printer model check
M862.1 P0.6 ; nozzle diameter check
M115 U3.13.2 ; tell printer latest fw version
G90 ; use absolute coordinates
M83 ; extruder relative mode
M104 S215 ; set extruder temp
M140 S60 ; set bed temp
M190 S60 ; wait for bed temp
M109 S215 ; wait for extruder temp
G28 W ; home all without mesh bed level
G80 ; mesh bed leveling

G1 Z0.2 F720
G1 Y-3 F1000 ; go outside print area
G92 E0
G1 X60 E9 F1000 ; intro line
G1 X100 E12.5 F1000 ; intro line

G92 E0
M221 S95
G21 ; set units to millimeters
G90 ; use absolute coordinates
M83 ; use relative distances for extrusion
M900 K0.04 ; Filament gcode LA 1.5
M900 K18 ; Filament gcode LA 1.0

M107
;LAYER_CHANGE
;Z:0.2
;HEIGHT:0.2
;BEFORE_LAYER_CHANGE
G92 E0.0
;0.2


G1 E-.8 F2100
G1 Z.4 F720
;AFTER_LAYER_CHANGE
;0.2
G1 X43.203 Y68.345 F10800
G1 Z.2 F720
G1 E.8 F1500
M204 S800
;TYPE:Skirt/Brim
;WIDTH:0.65
G1 F1200
G1 X44.942 Y67.584 E.09582
G1 X126.286 Y64.304 E4.10949
G1 X133.915 Y64.213 E.38513
M73 P0 R61
G1 X139.587 Y64.302 E.28635
G1 X140.202 Y64.385 E.03133
G1 X205.609 Y81.381 E3.41132
G1 X206.797 Y82.06 E.06907
G1 X209.784 Y85.048 E.21327
G1 X210.548 Y86.891 E.10071
G1 X210.548 Y124.479 E1.8974
G1 X209.784 Y126.323 E.10076
G1 X206.797 Y129.31 E.21324
G1 X205.558 Y130.003 E.07166
G1 X139.985 Y145.627 E3.40271
G1 X139.381 Y145.698 E.0307
G1 X127.02 Y145.695 E.62397
G1 X44.922 Y141.758 E4.14898
G1 X43.203 Y140.997 E.0949
G1 X40.216 Y138.01 E.21324
G1 X39.452 Y136.166 E.10076
G1 X39.452 Y73.176 E3.17966
G1 X40.216 Y71.333 E.10071
G1 X43.139 Y68.409 E.2087
M204 S1000
;WIPE_START
G1 F8640
G1 X44.942 Y67.584 E-.45783
G1 X46.423 Y67.524 E-.34217
;WIPE_END
G1 Z.6 F720
G1 X44.883 Y71.22 F10800
G1 Z.2 F720
G1 E.8 F1500
M204 S800
G1 F1200
G1 X45.014 Y71.139 E.00777
G1 X45.679 Y70.856 E.03648
G1 X46.788 Y70.636 E.05707
G1 X55.937 Y70.636 E.46183
G1 X57.075 Y70.867 E.05862
G1 X57.85 Y71.213 E.04284
G1 X58.521 Y71.677 E.04118
G1 X59.156 Y72.307 E.04515
G1 X59.658 Y73.036 E.04468
G1 X60.014 Y73.864 E.0455
G1 X60.2 Y74.738 E.04511
G1 X60.218 Y84.351 E.48525
G1 X123.851 Y84.351 E3.21212
G1 X123.851 Y71.641 E.64159
M73 Q0 S61
G1 X124.033 Y70.655 E.05061
G1 X124.413 Y69.754 E.04936
G1 X124.989 Y68.94 E.05034
G1 X125.734 Y68.246 E.0514
G1 X126.357 Y67.86 E.037
G1 X127.087 Y67.558 E.03988
G1 X127.828 Y67.387 E.03839
G1 X131.643 Y67.354 E.19258
G1 X133.867 Y67.267 E.11235
G1 X135.318 Y67.352 E.07337
G1 X137.801 Y67.356 E.12534
G1 X138.838 Y67.552 E.05327
G1 X139.678 Y67.912 E.04613
G1 X140.446 Y68.444 E.04716
G1 X141.148 Y69.177 E.05123
G1 X141.626 Y69.949 E.04583
G1 X141.92 Y70.708 E.04109
G1 X142.087 Y71.638 E.0477
G1 X142.087 Y84.351 E.64174
G1 X203.212 Y84.351 E3.08552
M73 P1 R61
M73 Q1 S61
G1 X204.329 Y84.574 E.0575
G1 X205.05 Y84.888 E.0397
G1 X205.679 Y85.295 E.03782
G1 X206.35 Y85.93 E.04663
G1 X206.905 Y86.697 E.04779
G1 X207.278 Y87.545 E.04676
G1 X207.475 Y88.445 E.04651
G1 X207.494 Y97.049 E.43432
G1 X207.312 Y98.047 E.05121
G1 X206.986 Y98.849 E.0437
G1 X206.515 Y99.575 E.04368
G1 X205.908 Y100.219 E.04467
G1 X205.234 Y100.71 E.04209
G1 X204.55 Y101.046 E.03847
G1 X203.872 Y101.254 E.0358
G1 X202.372 Y101.403 E.07609
G1 X201.702 Y101.564 E.03478
G1 X201.074 Y101.824 E.03431
G1 X200.494 Y102.18 E.03435
G1 X199.977 Y102.621 E.0343
G1 X199.535 Y103.138 E.03434
G1 X199.182 Y103.715 E.03414
G1 X198.918 Y104.356 E.03499
G1 X198.761 Y105.007 E.0338
G1 X198.708 Y105.685 E.03433
G1 X198.761 Y106.363 E.03433
G1 X198.92 Y107.024 E.03432
G1 X199.18 Y107.653 E.03436
G1 X199.535 Y108.232 E.03428
G1 X199.977 Y108.749 E.03434
G1 X200.494 Y109.191 E.03434
G1 X201.074 Y109.546 E.03433
G1 X201.702 Y109.806 E.03431
G1 X202.372 Y109.967 E.03478
G1 X203.873 Y110.116 E.07614
G1 X204.508 Y110.308 E.03349
G1 X205.143 Y110.607 E.03543
G1 X205.867 Y111.117 E.0447
G1 X206.482 Y111.753 E.04466
G1 X207.074 Y112.696 E.0562
G1 X207.362 Y113.501 E.04316
G1 X207.494 Y114.321 E.04193
G1 X207.494 Y122.738 E.42488
G1 X207.27 Y123.854 E.05746
G1 X206.957 Y124.576 E.03972
G1 X206.551 Y125.204 E.03775
G1 X205.872 Y125.913 E.04955
G1 X205.089 Y126.464 E.04833
G1 X204.168 Y126.845 E.05031
G1 X203.213 Y127.02 E.04901
G1 X141.918 Y127.02 E3.0941
G1 X141.881 Y138.74 E.59162
G1 X141.688 Y139.501 E.03963
G1 X141.295 Y140.364 E.04787
G1 X140.838 Y140.997 E.03941
G1 X140.261 Y141.574 E.04119
G1 X139.537 Y142.075 E.04444
G1 X138.767 Y142.417 E.04253
G1 X137.637 Y142.645 E.05819
G1 X128.542 Y142.607 E.45911
G1 X127.719 Y142.401 E.04283
G1 X126.887 Y142.019 E.04621
G1 X126.243 Y141.553 E.04013
G1 X125.609 Y140.904 E.0458
G1 X125.162 Y140.241 E.04036
G1 X124.84 Y139.513 E.04018
G1 X124.604 Y138.364 E.05921
G1 X124.604 Y127.02 E.57263
G1 X60.413 Y127.02 E3.24029
G1 X60.395 Y134.622 E.38374
G1 X60.194 Y135.53 E.04694
G1 X59.788 Y136.426 E.04966
G1 X59.312 Y137.081 E.04087
G1 X58.616 Y137.749 E.0487
G1 X57.931 Y138.191 E.04115
G1 X57.126 Y138.521 E.04392
G1 X56.134 Y138.707 E.05095
G1 X46.733 Y138.701 E.47455
G1 X45.767 Y138.512 E.04969
G1 X44.843 Y138.112 E.05083
G1 X44.074 Y137.552 E.04802
G1 X43.397 Y136.823 E.05022
G1 X43.01 Y136.199 E.03706
G1 X42.727 Y135.533 E.03653
G1 X42.506 Y134.425 E.05703
G1 X42.506 Y122.396 E.60721
G1 X42.676 Y121.456 E.04822
G1 X43.035 Y120.571 E.04821
G1 X43.454 Y119.924 E.03891
G1 X43.692 Y119.665 E.01776
G1 X43.692 Y91.706 E1.41134
G1 X43.454 Y91.447 E.01776
G1 X43.035 Y90.8 E.03891
G1 X42.676 Y89.914 E.04826
G1 X42.506 Y88.975 E.04817
G1 X42.506 Y74.917 E.70963
G1 X42.681 Y73.959 E.04916
G1 X43.101 Y72.972 E.05415
G1 X43.661 Y72.204 E.04798
G1 X44.39 Y71.526 E.05025
G1 X44.806 Y71.268 E.02471
M204 S1000
G1 X45.121 Y71.784 F10800
M204 S800
G1 F1200
G1 X45.309 Y71.67 E.0111
G1 X45.885 Y71.428 E.03154
G1 X46.818 Y71.243 E.04801
G1 X55.907 Y71.243 E.4588
G1 X56.862 Y71.436 E.04918
G1 X57.53 Y71.729 E.03682
G1 X58.153 Y72.161 E.03827
G1 X58.705 Y72.715 E.03948
G1 X59.138 Y73.351 E.03884
G1 X59.443 Y74.072 E.03952
G1 X59.599 Y74.83 E.03906
G1 X59.611 Y84.958 E.51125
G1 X124.458 Y84.958 E3.2734
G1 X124.458 Y71.668 E.67086
G1 X124.607 Y70.856 E.04167
G1 X124.931 Y70.073 E.04278
G1 X125.427 Y69.362 E.04376
G1 X126.124 Y68.713 E.04807
G1 X126.652 Y68.391 E.03122
G1 X127.253 Y68.142 E.03284
G1 X127.869 Y67.994 E.03198
G1 X131.658 Y67.961 E.19127
G1 X133.846 Y67.873 E.11054
G1 X135.3 Y67.959 E.07352
G1 X137.772 Y67.963 E.12478
G1 X138.634 Y68.124 E.04427
G1 X139.363 Y68.431 E.03993
G1 X140.03 Y68.888 E.04081
G1 X140.687 Y69.574 E.04795
G1 X141.072 Y70.197 E.03697
G1 X141.329 Y70.849 E.03538
G1 X141.48 Y71.667 E.04199
G1 X141.48 Y84.958 E.67091
G1 X203.182 Y84.958 E3.11465
G1 X204.119 Y85.145 E.04823
G1 X204.746 Y85.413 E.03442
G1 X205.283 Y85.756 E.03216
G1 X205.911 Y86.351 E.04367
G1 X206.391 Y87.022 E.04165
G1 X206.709 Y87.756 E.04038
G1 X206.874 Y88.539 E.04039
G1 X206.887 Y97.022 E.42821
G1 X206.737 Y97.851 E.04253
G1 X206.46 Y98.544 E.03767
G1 X206.022 Y99.221 E.0407
G1 X205.49 Y99.778 E.03888
G1 X204.902 Y100.201 E.03656
G1 X204.309 Y100.489 E.03328
G1 X203.727 Y100.664 E.03068
G1 X202.273 Y100.803 E.07373
G1 X201.514 Y100.985 E.0394
G1 X200.797 Y101.282 E.03918
G1 X200.136 Y101.687 E.03913
G1 X199.546 Y102.191 E.03917
G1 X199.043 Y102.78 E.0391
G1 X198.639 Y103.439 E.03902
G1 X198.338 Y104.168 E.03981
G1 X198.16 Y104.912 E.03862
G1 X198.099 Y105.685 E.03914
G1 X198.16 Y106.458 E.03914
G1 X198.341 Y107.212 E.03914
G1 X198.637 Y107.929 E.03916
G1 X199.043 Y108.59 E.03916
G1 X199.546 Y109.18 E.03914
G1 X200.136 Y109.684 E.03917
G1 X200.797 Y110.089 E.03913
G1 X201.514 Y110.386 E.03918
G1 X202.273 Y110.568 E.0394
G1 X203.727 Y110.706 E.07373
G1 X204.31 Y110.882 E.03074
G1 X204.857 Y111.143 E.03059
G1 X205.49 Y111.593 E.0392
G1 X206.021 Y112.149 E.03881
G1 X206.515 Y112.935 E.04686
G1 X206.768 Y113.63 E.03734
G1 X206.887 Y114.347 E.03669
G1 X206.887 Y122.708 E.42205
G1 X206.7 Y123.645 E.04823
G1 X206.431 Y124.272 E.03444
G1 X206.089 Y124.809 E.03214
G1 X205.494 Y125.437 E.04367
G1 X204.82 Y125.918 E.0418
G1 X204.022 Y126.255 E.04373
G1 X203.184 Y126.413 E.04305
G1 X141.312 Y126.413 E3.12323
G1 X141.274 Y138.697 E.62009
M73 P1 R60
G1 X141.108 Y139.319 E.0325
G1 X140.784 Y140.036 E.03972
G1 X140.389 Y140.588 E.03426
G1 X139.888 Y141.094 E.03594
G1 X139.263 Y141.533 E.03855
G1 X138.551 Y141.848 E.0393
G1 X137.608 Y142.037 E.04855
G1 X128.65 Y142.009 E.45219
G1 X127.945 Y141.837 E.03663
G1 X127.17 Y141.481 E.04305
G1 X126.625 Y141.08 E.03416
G1 X126.064 Y140.501 E.0407
G1 X125.706 Y139.971 E.03229
G1 X125.409 Y139.298 E.03713
G1 X125.211 Y138.333 E.04973
G1 X125.211 Y126.413 E.60171
G1 X59.807 Y126.413 E3.30152
M73 P2 R60
G1 X59.788 Y134.585 E.41251
M73 Q2 S61
G1 X59.61 Y135.362 E.04024
G1 X59.251 Y136.142 E.04334
G1 X58.841 Y136.697 E.03483
G1 X58.22 Y137.288 E.04327
G1 X57.629 Y137.664 E.03536
G1 X56.981 Y137.931 E.03538
G1 X56.104 Y138.1 E.04508
G1 X46.816 Y138.1 E.46885
G1 X45.976 Y137.941 E.04316
G1 X45.116 Y137.569 E.0473
G1 X44.5 Y137.117 E.03857
G1 X43.863 Y136.433 E.04718
G1 X43.541 Y135.904 E.03126
G1 X43.299 Y135.327 E.03158
G1 X43.113 Y134.395 E.04797
G1 X43.113 Y122.425 E.60423
G1 X43.266 Y121.6 E.04236
G1 X43.584 Y120.831 E.04201
G1 X43.944 Y120.283 E.0331
G1 X44.299 Y119.912 E.02592
G1 X44.299 Y91.458 E1.43633
G1 X43.944 Y91.087 E.02592
G1 X43.584 Y90.539 E.0331
G1 X43.266 Y89.771 E.04196
G1 X43.113 Y88.946 E.04236
G1 X43.113 Y74.946 E.7067
G1 X43.271 Y74.106 E.04315
G1 X43.644 Y73.245 E.04737
G1 X44.095 Y72.629 E.03854
G1 X44.78 Y71.992 E.04722
G1 X45.044 Y71.831 E.01561
M204 S1000
G1 X45.353 Y72.35 F10800
M204 S800
G1 F1200
G1 X45.598 Y72.204 E.0144
G1 X46.089 Y72.001 E.02682
G1 X46.848 Y71.85 E.03906
G1 X55.877 Y71.85 E.45577
G1 X56.648 Y72.005 E.0397
G1 X57.257 Y72.273 E.03359
G1 X57.78 Y72.64 E.03225
G1 X58.252 Y73.119 E.03395
G1 X58.616 Y73.662 E.033
G1 X58.87 Y74.275 E.03349
G1 X58.998 Y74.918 E.03309
G1 X59.004 Y85.565 E.53745
G1 X125.065 Y85.565 E3.33468
G1 X125.065 Y71.697 E.70004
G1 X125.197 Y71 E.03581
G1 X125.45 Y70.389 E.03338
G1 X125.866 Y69.782 E.03715
G1 X126.513 Y69.18 E.04461
G1 X126.943 Y68.924 E.02526
G1 X127.426 Y68.724 E.02639
G1 X127.913 Y68.6 E.02537
G1 X131.673 Y68.568 E.18981
G1 X133.826 Y68.48 E.10877
G1 X135.282 Y68.566 E.07363
G1 X137.744 Y68.57 E.12428
G1 X138.433 Y68.698 E.03538
G1 X139.051 Y68.953 E.03375
G1 X139.615 Y69.332 E.0343
G1 X140.226 Y69.97 E.04459
G1 X140.519 Y70.448 E.0283
G1 X140.739 Y70.994 E.02971
G1 X140.873 Y71.696 E.03608
G1 X140.873 Y85.565 E.70009
G1 X203.152 Y85.565 E3.14377
G1 X203.912 Y85.717 E.03912
G1 X204.447 Y85.942 E.0293
G1 X204.889 Y86.219 E.02633
G1 X205.473 Y86.772 E.0406
G1 X205.849 Y87.297 E.0326
G1 X206.121 Y87.913 E.03399
G1 X206.274 Y88.633 E.03716
G1 X206.28 Y96.996 E.42215
G1 X206.161 Y97.659 E.034
G1 X205.932 Y98.244 E.03171
G1 X205.56 Y98.826 E.03487
G1 X205.11 Y99.303 E.0331
G1 X204.57 Y99.692 E.03359
G1 X204.071 Y99.93 E.02791
G1 X203.585 Y100.073 E.02557
G1 X202.174 Y100.202 E.07152
G1 X201.325 Y100.406 E.04408
G1 X200.521 Y100.739 E.04393
G1 X199.778 Y101.194 E.04398
G1 X199.116 Y101.76 E.04397
G1 X198.55 Y102.423 E.044
G1 X198.096 Y103.163 E.04382
G1 X197.759 Y103.98 E.04461
G1 X197.558 Y104.817 E.04345
G1 X197.49 Y105.685 E.04395
G1 X197.558 Y106.554 E.044
G1 X197.762 Y107.401 E.04398
G1 X198.095 Y108.205 E.04393
G1 X198.55 Y108.948 E.04398
G1 X199.116 Y109.61 E.04397
G1 X199.778 Y110.176 E.04397
G1 X200.521 Y110.631 E.04398
G1 X201.326 Y110.965 E.04399
G1 X202.174 Y111.168 E.04402
G1 X203.585 Y111.297 E.07152
G1 X204.071 Y111.441 E.02559
M73 Q2 S60
G1 X204.57 Y111.679 E.02791
G1 X205.11 Y112.068 E.03359
G1 X205.559 Y112.543 E.03299
G1 X205.957 Y113.177 E.03779
G1 X206.175 Y113.762 E.03151
G1 X206.28 Y114.374 E.03134
G1 X206.28 Y122.678 E.41918
G1 X206.128 Y123.438 E.03912
G1 X205.903 Y123.973 E.0293
G1 X205.626 Y124.415 E.02633
G1 X205.073 Y124.998 E.04056
G1 X204.548 Y125.374 E.0326
G1 X203.872 Y125.666 E.03717
G1 X203.154 Y125.806 E.03693
G1 X140.707 Y125.806 E3.15225
G1 X140.677 Y138.582 E.64492
G1 X140.544 Y139.093 E.02665
G1 X140.244 Y139.756 E.03673
G1 X139.913 Y140.21 E.02836
G1 X139.479 Y140.644 E.03098
G1 X138.943 Y141.016 E.03293
G1 X138.34 Y141.279 E.03321
G1 X137.579 Y141.43 E.03916
G1 X128.754 Y141.41 E.44548
G1 X128.166 Y141.271 E.0305
G1 X127.499 Y140.97 E.03694
G1 X127.04 Y140.637 E.02863
G1 X126.549 Y140.134 E.03548
G1 X126.249 Y139.699 E.02667
G1 X125.977 Y139.083 E.03399
G1 X125.819 Y138.303 E.04017
G1 X125.819 Y125.806 E.63083
G1 X59.201 Y125.806 E3.3628
G1 X59.188 Y134.487 E.43821
G1 X59.043 Y135.143 E.03391
G1 X58.741 Y135.812 E.03705
G1 X58.402 Y136.277 E.02905
G1 X57.824 Y136.826 E.04024
G1 X57.329 Y137.135 E.02946
G1 X56.832 Y137.342 E.02718
G1 X56.073 Y137.493 E.03906
G1 X46.846 Y137.493 E.46577
G1 X46.128 Y137.353 E.03693
G1 X45.393 Y137.028 E.04057
G1 X44.925 Y136.683 E.02935
G1 X44.33 Y136.044 E.04407
G1 X44.074 Y135.614 E.02526
G1 X43.871 Y135.123 E.02682
G1 X43.72 Y134.365 E.03901
G1 X43.72 Y122.454 E.60125
G1 X43.856 Y121.748 E.03629
G1 X44.131 Y121.096 E.03572
G1 X44.432 Y120.646 E.02733
G1 X44.907 Y120.163 E.0342
G1 X44.907 Y91.208 E1.46162
G1 X44.432 Y90.724 E.03423
G1 X44.131 Y90.274 E.02733
G1 X43.856 Y89.623 E.03567
G1 X43.72 Y88.916 E.03634
G1 X43.72 Y74.976 E.70368
G1 X43.86 Y74.257 E.03698
G1 X44.185 Y73.523 E.04052
G1 X44.529 Y73.055 E.02932
G1 X45.169 Y72.46 E.04411
G1 X45.276 Y72.396 E.00629
M204 S1000
G1 X45.589 Y72.915 F10800
M204 S800
G1 F1200
G1 X45.853 Y72.756 E.01556
G1 X46.294 Y72.573 E.0241
G1 X46.878 Y72.457 E.03006
G1 X55.846 Y72.457 E.45269
G1 X56.439 Y72.576 E.03053
G1 X56.939 Y72.79 E.02745
G1 X57.371 Y73.09 E.02655
G1 X57.768 Y73.486 E.02831
G1 X58.07 Y73.93 E.02711
G1 X58.281 Y74.425 E.02716
G1 X58.397 Y75.007 E.02996
G1 X58.397 Y86.172 E.5636
G1 X125.672 Y86.172 E3.39597
G1 X125.672 Y71.726 E.72922
M73 P3 R60
M73 Q3 S60
G1 X125.772 Y71.198 E.02713
G1 X125.973 Y70.699 E.02716
G1 X126.309 Y70.199 E.03041
G1 X126.857 Y69.682 E.03803
G1 X127.197 Y69.476 E.02007
G1 X127.636 Y69.294 E.02399
G1 X128.023 Y69.198 E.02013
G1 X131.687 Y69.175 E.18496
G1 X133.806 Y69.087 E.10706
G1 X135.263 Y69.173 E.07368
G1 X137.716 Y69.177 E.12382
G1 X138.231 Y69.271 E.02643
G1 X138.789 Y69.502 E.03049
G1 X139.243 Y69.813 E.02778
G1 X139.761 Y70.361 E.03806
G1 X139.967 Y70.702 E.02011
G1 X140.15 Y71.144 E.02415
G1 X140.266 Y71.727 E.03001
G1 X140.266 Y86.172 E.72917
G1 X203.122 Y86.172 E3.1729
G1 X203.705 Y86.288 E.03001
G1 X204.186 Y86.491 E.02635
G1 X204.536 Y86.713 E.02092
G1 X205.032 Y87.19 E.03474
G1 X205.307 Y87.572 E.02376
G1 X205.552 Y88.127 E.03062
G1 X205.673 Y88.723 E.0307
G1 X205.673 Y96.969 E.41625
G1 X205.583 Y97.471 E.02574
G1 X205.401 Y97.949 E.02582
G1 X205.097 Y98.432 E.02881
G1 X204.689 Y98.865 E.03003
G1 X204.282 Y99.157 E.02529
G1 X203.874 Y99.355 E.02289
G1 X203.443 Y99.482 E.02268
G1 X202.077 Y99.601 E.06922
G1 X201.137 Y99.827 E.0488
G1 X200.244 Y100.197 E.04879
G1 X199.42 Y100.702 E.04878
G1 X198.685 Y101.33 E.0488
G1 X198.057 Y102.065 E.0488
G1 X197.553 Y102.887 E.04867
G1 X197.18 Y103.793 E.04946
G1 X196.957 Y104.722 E.04823
G1 X196.881 Y105.685 E.04876
G1 X196.957 Y106.649 E.04881
G1 X197.182 Y107.589 E.04879
G1 X197.552 Y108.482 E.04879
G1 X198.057 Y109.306 E.04878
G1 X198.685 Y110.041 E.0488
G1 X199.42 Y110.669 E.0488
G1 X200.244 Y111.174 E.04878
G1 X201.137 Y111.544 E.04879
G1 X202.077 Y111.769 E.04879
G1 X203.443 Y111.888 E.06922
G1 X203.874 Y112.015 E.02268
G1 X204.282 Y112.213 E.02289
G1 X204.689 Y112.506 E.02531
