; generated by PrusaSlicer 2.6.1+win64 on 2023-12-12 at 18:46:44 UTC


;
;
; 

; external perimeters extrusion width = 0.68mm
; perimeters extrusion width = 0.68mm
; infill extrusion width = 0.68mm
; solid infill extrusion width = 0.68mm
; top infill extrusion width = 0.60mm
; first layer extrusion width = 0.65mm

M73 P0 R23
M73 Q0 S23
M201 X1000 Y1000 Z200 E5000 ; sets maximum accelerations, mm/sec^2
M203 X200 Y200 Z12 E120 ; sets maximum feedrates, mm / sec
M204 S1250 T1250 ; sets acceleration (S) and retract acceleration (R), mm/sec^2
M205 X8.00 Y8.00 Z0.40 E4.50 ; sets the jerk limits, mm/sec
M205 S0 T0 ; sets the minimum extruding and travel feed rate, mm/sec
;TYPE:Custom
M862.3 P "MK3S" ; printer model check
M862.1 P0.6 ; nozzle diameter check
M115 U3.13.2 ; tell printer latest fw version
G90 ; use absolute coordinates
M83 ; extruder relative mode
M104 S215 ; set extruder temp
M140 S60 ; set bed temp
M190 S60 ; wait for bed temp
M109 S215 ; wait for extruder temp
G28 W ; home all without mesh bed level
G80 ; mesh bed leveling

G1 Z0.2 F720
G1 Y-3 F1000 ; go outside print area
G92 E0
G1 X60 E9 F1000 ; intro line
G1 X100 E12.5 F1000 ; intro line

G92 E0
M221 S95
G21 ; set units to millimeters
G90 ; use absolute coordinates
M83 ; use relative distances for extrusion
M900 K0.04 ; Filament gcode LA 1.5
M900 K18 ; Filament gcode LA 1.0

M107
;LAYER_CHANGE
;Z:0.2
;HEIGHT:0.2
;BEFORE_LAYER_CHANGE
G92 E0.0
;0.2


G1 E-.8 F2100
G1 Z.4 F720
;AFTER_LAYER_CHANGE
;0.2
G1 X66.5 Y66.5 F10800
G1 Z.2 F720
G1 E.8 F1500
M204 S800
;TYPE:Skirt/Brim
;WIDTH:0.65
G1 F1200
G1 X66.744 Y66.257 E.01738
G1 X68.588 Y65.493 E.10076
G1 X181.412 Y65.493 E5.69523
G1 X183.256 Y66.257 E.10076
G1 X186.243 Y69.244 E.21324
G1 X187.007 Y71.088 E.10076
G1 X187.007 Y138.912 E3.42368
G1 X186.243 Y140.756 E.10076
M73 P1 R23
M73 Q1 S23
G1 X183.256 Y143.743 E.21324
G1 X181.412 Y144.507 E.10076
G1 X68.588 Y144.507 E5.69523
G1 X66.744 Y143.743 E.10076
G1 X63.757 Y140.756 E.21324
G1 X62.993 Y138.912 E.10076
G1 X62.993 Y71.088 E3.42368
G1 X63.757 Y69.244 E.10076
G1 X66.437 Y66.564 E.19132
M204 S1000
;WIPE_START
G1 F8640
G1 X66.744 Y66.257 E-.10025
G1 X68.588 Y65.493 E-.46088
G1 X69.623 Y65.493 E-.23887
;WIPE_END
G1 Z.6 F720
G1 X68.207 Y69.245 F10800
G1 Z.2 F720
G1 E.8 F1500
M204 S800
G1 F1200
G1 X69.227 Y68.768 E.05684
G1 X70.327 Y68.547 E.05664
G1 X179.742 Y68.553 E5.52315
G1 X180.648 Y68.728 E.04658
M73 P2 R23
M73 Q2 S23
G1 X181.547 Y69.103 E.04917
G1 X182.219 Y69.559 E.04099
G1 X182.849 Y70.168 E.04423
G1 X183.488 Y71.129 E.05826
G1 X183.807 Y71.97 E.0454
G1 X183.953 Y72.832 E.04413
G1 X183.953 Y137.173 E3.24786
G1 X183.732 Y138.273 E.05664
G1 X183.255 Y139.293 E.05684
G1 X182.836 Y139.845 E.03498
G1 X182.345 Y140.336 E.03505
G1 X181.793 Y140.755 E.03498
G1 X180.773 Y141.232 E.05684
G1 X179.673 Y141.453 E.05664
G1 X70.327 Y141.453 E5.51966
G1 X69.227 Y141.232 E.05664
G1 X68.207 Y140.755 E.05684
G1 X67.655 Y140.336 E.03498
G1 X67.164 Y139.845 E.03505
G1 X66.745 Y139.293 E.03498
G1 X66.268 Y138.273 E.05684
G1 X66.047 Y137.173 E.05664
G1 X66.047 Y72.827 E3.24811
G1 X66.268 Y71.727 E.05664
M73 P3 R23
M73 Q3 S23
G1 X66.745 Y70.707 E.05684
G1 X67.164 Y70.155 E.03498
G1 X67.655 Y69.664 E.03505
G1 X68.135 Y69.3 E.03041
M204 S1000
G1 X68.5 Y69.784 F10800
M204 S800
G1 F1200
G1 X69.386 Y69.355 E.04969
G1 X70.358 Y69.154 E.0501
G1 X179.711 Y69.16 E5.52002
G1 X180.497 Y69.317 E.04046
M73 P3 R22
M73 Q3 S22
G1 X181.28 Y69.649 E.04293
G1 X181.853 Y70.043 E.0351
G1 X182.401 Y70.58 E.03873
G1 X182.934 Y71.38 E.04853
G1 X183.214 Y72.106 E.03928
G1 X183.346 Y72.859 E.03859
G1 X183.346 Y137.142 E3.24493
G1 X183.145 Y138.114 E.0501
G1 X182.751 Y138.953 E.04679
G1 X182.391 Y139.431 E.03021
G1 X181.931 Y139.891 E.03284
G1 X181.453 Y140.251 E.03021
G1 X180.614 Y140.645 E.04679
G1 X179.642 Y140.846 E.0501
G1 X70.358 Y140.846 E5.51653
G1 X69.386 Y140.645 E.0501
M73 P4 R22
M73 Q4 S22
G1 X68.547 Y140.251 E.04679
G1 X68.069 Y139.891 E.03021
G1 X67.609 Y139.431 E.03284
G1 X67.249 Y138.953 E.03021
G1 X66.855 Y138.114 E.04679
G1 X66.654 Y137.142 E.0501
G1 X66.654 Y72.858 E3.24498
G1 X66.855 Y71.886 E.0501
G1 X67.249 Y71.047 E.04679
G1 X67.609 Y70.569 E.03021
G1 X68.069 Y70.109 E.03284
G1 X68.428 Y69.838 E.02271
M204 S1000
G1 X68.791 Y70.324 F10800
M204 S800
G1 F1200
G1 X68.883 Y70.255 E.00581
G1 X69.607 Y69.921 E.04025
G1 X70.389 Y69.761 E.04029
G1 X179.679 Y69.767 E5.51684
G1 X180.342 Y69.904 E.03417
G1 X181.008 Y70.193 E.03665
G1 X181.482 Y70.524 E.02918
G1 X181.952 Y70.989 E.03337
G1 X182.382 Y71.633 E.03909
G1 X182.623 Y72.245 E.0332
G1 X182.739 Y72.887 E.03293
G1 X182.739 Y137.111 E3.24196
G1 X182.579 Y137.893 E.04029
M73 P5 R22
M73 Q5 S22
G1 X182.245 Y138.617 E.04025
G1 X181.946 Y139.017 E.02521
G1 X181.517 Y139.446 E.03063
G1 X181.117 Y139.745 E.02521
G1 X180.393 Y140.079 E.04025
G1 X179.611 Y140.239 E.04029
G1 X70.389 Y140.239 E5.5134
G1 X69.607 Y140.079 E.04029
G1 X68.883 Y139.745 E.04025
G1 X68.483 Y139.446 E.02521
G1 X68.054 Y139.017 E.03063
G1 X67.755 Y138.617 E.02521
G1 X67.421 Y137.893 E.04025
G1 X67.261 Y137.111 E.04029
G1 X67.261 Y72.889 E3.24185
G1 X67.421 Y72.107 E.04029
G1 X67.755 Y71.383 E.04025
G1 X68.054 Y70.983 E.02521
G1 X68.483 Y70.554 E.03063
G1 X68.719 Y70.378 E.01486
M204 S1000
G1 X69.078 Y70.866 F10800
M204 S800
G1 F1200
G1 X69.215 Y70.764 E.00862
G1 X69.825 Y70.488 E.0338
G1 X70.419 Y70.368 E.03059
G1 X179.645 Y70.374 E5.51361
G1 X180.18 Y70.49 E.02763
M73 P6 R22
M73 Q6 S22
G1 X180.732 Y70.734 E.03047
G1 X181.107 Y71.002 E.02327
G1 X181.502 Y71.397 E.0282
G1 X181.831 Y71.89 E.02992
G1 X182.032 Y72.389 E.02716
G1 X182.132 Y72.917 E.02713
G1 X182.132 Y137.081 E3.23893
G1 X182.012 Y137.675 E.03059
G1 X181.736 Y138.285 E.0338
G1 X181.5 Y138.605 E.02007
G1 X181.105 Y139 E.0282
G1 X180.785 Y139.236 E.02007
G1 X180.175 Y139.512 E.0338
G1 X179.581 Y139.632 E.03059
G1 X70.419 Y139.632 E5.51037
G1 X69.825 Y139.512 E.03059
G1 X69.215 Y139.236 E.0338
G1 X68.895 Y139 E.02007
G1 X68.5 Y138.605 E.0282
G1 X68.264 Y138.285 E.02007
G1 X67.988 Y137.675 E.0338
G1 X67.868 Y137.081 E.03059
G1 X67.868 Y72.919 E3.23883
G1 X67.988 Y72.325 E.03059
M73 P7 R22
M73 Q7 S22
G1 X68.264 Y71.715 E.0338
G1 X68.5 Y71.395 E.02007
G1 X68.895 Y71 E.0282
G1 X69.005 Y70.919 E.0069
M204 S1000
G1 X69.36 Y71.409 F10800
M204 S800
G1 F1200
G1 X69.543 Y71.276 E.01142
G1 X70.038 Y71.058 E.0273
G1 X70.449 Y70.975 E.02117
G1 X179.612 Y70.981 E5.51043
G1 X179.963 Y71.058 E.01814
G1 X180.457 Y71.276 E.02726
G1 X180.694 Y71.447 E.01475
M73 P7 R21
G1 X181.051 Y71.805 E.02552
G1 X181.283 Y72.151 E.02103
G1 X181.444 Y72.54 E.02125
G1 X181.525 Y72.948 E.021
G1 X181.525 Y137.051 E3.23585
G1 X181.442 Y137.462 E.02117
M73 Q7 S21
G1 X181.224 Y137.957 E.0273
G1 X181.053 Y138.194 E.01475
G1 X180.694 Y138.553 E.02563
G1 X180.457 Y138.724 E.01475
G1 X179.962 Y138.942 E.0273
G1 X179.551 Y139.025 E.02117
G1 X70.449 Y139.025 E5.50735
G1 X70.038 Y138.942 E.02117
M73 P8 R21
M73 Q8 S21
G1 X69.543 Y138.724 E.0273
G1 X69.306 Y138.553 E.01475
G1 X68.947 Y138.194 E.02563
G1 X68.776 Y137.957 E.01475
G1 X68.558 Y137.462 E.0273
G1 X68.475 Y137.051 E.02117
G1 X68.475 Y72.949 E3.2358
G1 X68.558 Y72.538 E.02117
G1 X68.776 Y72.043 E.0273
G1 X68.947 Y71.806 E.01475
G1 X69.289 Y71.464 E.02441
M204 S1000
G1 X69.716 Y71.897 F10800
M204 S800
G1 F1200
G1 X69.863 Y71.792 E.00912
G1 X70.246 Y71.628 E.02103
G1 X70.478 Y71.582 E.01194
G1 X179.577 Y71.588 E5.50719
G1 X179.75 Y71.627 E.00895
G1 X180.137 Y71.792 E.02124
G1 X180.284 Y71.897 E.00912
G1 X180.601 Y72.213 E.02259
G1 X180.733 Y72.411 E.01201
G1 X180.871 Y72.745 E.01824
G1 X180.918 Y72.978 E.012
G1 X180.918 Y137.022 E3.23287
G1 X180.872 Y137.254 E.01194
G1 X180.708 Y137.637 E.02103
G1 X180.603 Y137.784 E.00912
G1 X180.284 Y138.103 E.02277
G1 X180.137 Y138.208 E.00912
G1 X179.754 Y138.372 E.02103
G1 X179.522 Y138.418 E.01194
G1 X70.478 Y138.418 E5.50442
G1 X70.246 Y138.372 E.01194
M73 P9 R21
M73 Q9 S21
G1 X69.863 Y138.208 E.02103
G1 X69.716 Y138.103 E.00912
G1 X69.397 Y137.784 E.02277
G1 X69.292 Y137.637 E.00912
G1 X69.128 Y137.254 E.02103
G1 X69.082 Y137.022 E.01194
G1 X69.082 Y72.978 E3.23287
G1 X69.128 Y72.746 E.01194
G1 X69.292 Y72.363 E.02103
G1 X69.397 Y72.216 E.00912
G1 X69.652 Y71.96 E.01824
M204 S1000
G1 X70.081 Y72.389 F10800
M204 S800
G1 F1200
G1 X70.171 Y72.316 E.00585
G1 X70.508 Y72.189 E.01818
G1 X179.492 Y72.189 E5.50139
G1 X179.829 Y72.316 E.01818
G1 X180.15 Y72.621 E.02235
G1 X180.311 Y73.008 E.02116
G1 X180.311 Y136.992 E3.22984
G1 X180.184 Y137.329 E.01818
M73 P10 R21
M73 Q10 S21
G1 X179.879 Y137.65 E.02235
G1 X179.492 Y137.811 E.02116
G1 X70.508 Y137.811 E5.50139
G1 X70.171 Y137.684 E.01818
G1 X69.85 Y137.379 E.02235
G1 X69.689 Y136.992 E.02116
G1 X69.689 Y73.008 E3.22984
G1 X69.816 Y72.671 E.01818
G1 X70.018 Y72.453 E.015
M204 S1000
G1 X70.447 Y72.882 F10800
M204 S800
G1 F1200
G1 X70.487 Y72.843 E.00282
G1 X70.598 Y72.796 E.00608
G1 X179.402 Y72.796 E5.4923
G1 X179.513 Y72.843 E.00608
M73 P11 R21
M73 Q11 S21
G1 X179.657 Y72.987 E.01028
G1 X179.704 Y73.098 E.00608
G1 X179.704 Y136.902 E3.22075
G1 X179.657 Y137.013 E.00608
G1 X179.513 Y137.157 E.01028
G1 X179.402 Y137.204 E.00608
G1 X70.598 Y137.204 E5.4923
G1 X70.487 Y137.157 E.00608
M73 P11 R20
M73 Q11 S20
G1 X70.343 Y137.013 E.01028
G1 X70.296 Y136.902 E.00608
G1 X70.296 Y73.098 E3.22075
G1 X70.343 Y72.987 E.00608
M73 P12 R20
M73 Q12 S20
G1 X70.383 Y72.946 E.00289
M204 S1000
; printing object Body4.stl id:0 copy 0
;WIPE_START
G1 F8640
G1 X70.487 Y72.843 E-.0338
G1 X70.598 Y72.796 E-.02783
G1 X73.796 Y72.796 E-.73837
;WIPE_END
G1 Z.6 F720
G1 X178.368 Y74.132 F10800
G1 Z.2 F720
G1 E.8 F1500
M204 S800
;TYPE:Perimeter
;WIDTH:0.649999
G1 F1200
G1 X178.368 Y135.868 E3.11636
G1 X71.632 Y135.868 E5.38791
G1 X71.632 Y74.132 E3.11636
G1 X178.278 Y74.132 E5.38336
M204 S1000
G1 X178.975 Y73.525 F10800
M204 S800
;TYPE:External perimeter
M73 P13 R20
M73 Q13 S20
G1 F1200
G1 X178.975 Y136.475 E3.17764
G1 X71.025 Y136.475 E5.44919
G1 X71.025 Y73.525 E3.17764
G1 X178.885 Y73.525 E5.44465
M204 S1000
M73 P14 R20
M73 Q14 S20
G1 X178.771 Y74.089 F10800
;WIPE_START
G1 F8640
G1 X178.89 Y76.99 E-.8
;WIPE_END
G1 Z.6 F720
G1 X178.125 Y75.604 F10800
G1 Z.2 F720
G1 E.8 F1500
M204 S800
;TYPE:Solid infill
;WIDTH:0.650748
G1 F1200
G1 X177.17 Y74.648 E.0683
G1 X176.31 Y74.648 E.04347
G1 X177.852 Y76.19 E.11022
G1 X177.852 Y77.05 E.04347
G1 X175.45 Y74.648 E.17169
G1 X174.591 Y74.648 E.04341
G1 X177.852 Y77.909 E.23308
G1 X177.852 Y78.769 E.04347
G1 X173.731 Y74.648 E.29455
G1 X172.872 Y74.648 E.04341
G1 X177.852 Y79.628 E.35595
G1 X177.852 Y80.488 E.04347
G1 X172.012 Y74.648 E.41742
G1 X171.152 Y74.648 E.04347
G1 X177.852 Y81.348 E.47889
G1 X177.852 Y82.207 E.04341
G1 X170.293 Y74.648 E.54029
G1 X169.433 Y74.648 E.04347
G1 X177.852 Y83.067 E.60176
G1 X177.852 Y83.926 E.04341
G1 X168.574 Y74.648 E.66315
G1 X167.714 Y74.648 E.04347
G1 X177.852 Y84.786 E.72462
G1 X177.852 Y85.646 E.04347
G1 X166.854 Y74.648 E.78609
G1 X165.995 Y74.648 E.04341
G1 X177.852 Y86.505 E.84749
G1 X177.852 Y87.365 E.04347
M73 P15 R20
M73 Q15 S20
G1 X165.135 Y74.648 E.90896
G1 X164.276 Y74.648 E.04341
G1 X177.852 Y88.224 E.97036
G1 X177.852 Y89.084 E.04347
G1 X163.416 Y74.648 E1.03183
G1 X162.556 Y74.648 E.04347
G1 X177.852 Y89.944 E1.0933
G1 X177.852 Y90.803 E.04341
G1 X161.697 Y74.648 E1.15469
G1 X160.837 Y74.648 E.04347
G1 X177.852 Y91.663 E1.21616
G1 X177.852 Y92.522 E.04341
G1 X159.978 Y74.648 E1.27756
G1 X159.118 Y74.648 E.04347
G1 X177.852 Y93.382 E1.33903
G1 X177.852 Y94.242 E.04347
G1 X158.258 Y74.648 E1.4005
G1 X157.399 Y74.648 E.04341
G1 X177.852 Y95.101 E1.4619
G1 X177.852 Y95.961 E.04347
G1 X156.539 Y74.648 E1.52337
G1 X155.68 Y74.648 E.04341
M73 P15 R19
M73 Q16 S19
G1 X177.852 Y96.82 E1.58476
G1 X177.852 Y97.68 E.04347
M73 P16 R19
G1 X154.82 Y74.648 E1.64623
G1 X153.96 Y74.648 E.04347
G1 X177.852 Y98.54 E1.7077
G1 X177.852 Y99.399 E.04341
G1 X153.101 Y74.648 E1.7691
G1 X152.241 Y74.648 E.04347
G1 X177.852 Y100.259 E1.83057
G1 X177.852 Y101.118 E.04341
G1 X151.382 Y74.648 E1.89197
G1 X150.522 Y74.648 E.04347
G1 X177.852 Y101.978 E1.95344
G1 X177.852 Y102.838 E.04347
G1 X149.662 Y74.648 E2.01491
G1 X148.803 Y74.648 E.04341
M73 P17 R19
M73 Q17 S19
G1 X177.852 Y103.697 E2.0763
G1 X177.852 Y104.557 E.04347
G1 X147.943 Y74.648 E2.13777
G1 X147.084 Y74.648 E.04341
G1 X177.852 Y105.416 E2.19917
G1 X177.852 Y106.276 E.04347
G1 X146.224 Y74.648 E2.26064
G1 X145.364 Y74.648 E.04347
G1 X177.852 Y107.136 E2.32211
G1 X177.852 Y107.995 E.04341
G1 X144.505 Y74.648 E2.38351
G1 X143.645 Y74.648 E.04347
G1 X177.852 Y108.855 E2.44498
G1 X177.852 Y109.714 E.04341
M73 P18 R19
M73 Q18 S19
G1 X142.786 Y74.648 E2.50637
G1 X141.926 Y74.648 E.04347
G1 X177.852 Y110.574 E2.56784
G1 X177.852 Y111.434 E.04347
G1 X141.066 Y74.648 E2.62931
G1 X140.207 Y74.648 E.04341
G1 X177.852 Y112.293 E2.69071
G1 X177.852 Y113.153 E.04347
G1 X139.347 Y74.648 E2.75218
G1 X138.488 Y74.648 E.04341
M73 P19 R19
M73 Q19 S19
G1 X177.852 Y114.012 E2.81358
G1 X177.852 Y114.872 E.04347
G1 X137.628 Y74.648 E2.87505
G1 X136.768 Y74.648 E.04347
G1 X177.852 Y115.732 E2.93652
G1 X177.852 Y116.591 E.04341
G1 X135.909 Y74.648 E2.99791
G1 X135.049 Y74.648 E.04347
G1 X177.852 Y117.451 E3.05938
G1 X177.852 Y118.31 E.04341
M73 P20 R18
M73 Q20 S19
G1 X134.19 Y74.648 E3.12078
G1 X133.33 Y74.648 E.04347
M73 Q20 S18
G1 X177.852 Y119.17 E3.18225
G1 X177.852 Y120.03 E.04347
G1 X132.47 Y74.648 E3.24372
G1 X131.611 Y74.648 E.04341
G1 X177.852 Y120.889 E3.30512
G1 X177.852 Y121.749 E.04347
M73 P21 R18
M73 Q21 S18
G1 X130.751 Y74.648 E3.36659
G1 X129.892 Y74.648 E.04341
G1 X177.852 Y122.608 E3.42798
G1 X177.852 Y123.468 E.04347
G1 X129.032 Y74.648 E3.48945
G1 X128.172 Y74.648 E.04347
G1 X177.852 Y124.328 E3.55092
G1 X177.852 Y125.187 E.04341
M73 Q22 S18
G1 X127.313 Y74.648 E3.61232
G1 X126.453 Y74.648 E.04347
M73 P22 R18
G1 X177.852 Y126.047 E3.67379
G1 X177.852 Y126.906 E.04341
G1 X125.594 Y74.648 E3.73519
G1 X124.734 Y74.648 E.04347
G1 X177.852 Y127.766 E3.79666
G1 X177.852 Y128.626 E.04347
M73 P23 R18
M73 Q23 S18
G1 X123.874 Y74.648 E3.85813
G1 X123.015 Y74.648 E.04341
G1 X177.852 Y129.485 E3.91952
G1 X177.852 Y130.345 E.04347
G1 X122.155 Y74.648 E3.98099
G1 X121.296 Y74.648 E.04341
G1 X177.852 Y131.204 E4.04239
G1 X177.852 Y132.064 E.04347
M73 P24 R18
M73 Q24 S18
G1 X120.436 Y74.648 E4.10386
G1 X119.576 Y74.648 E.04347
M73 P24 R17
M73 Q24 S17
G1 X177.852 Y132.924 E4.16533
G1 X177.852 Y133.783 E.04341
G1 X118.717 Y74.648 E4.22673
G1 X117.857 Y74.648 E.04347
M73 P25 R17
M73 Q25 S17
G1 X177.852 Y134.643 E4.2882
G1 X177.852 Y135.352 E.03583
G1 X177.701 Y135.352 E.00763
G1 X116.998 Y74.648 E4.33884
G1 X116.138 Y74.648 E.04347
G1 X176.842 Y135.352 E4.33887
G1 X175.982 Y135.352 E.04347
G1 X115.278 Y74.648 E4.33887
G1 X114.419 Y74.648 E.04341
M73 P26 R17
M73 Q26 S17
G1 X175.123 Y135.352 E4.33887
G1 X174.263 Y135.352 E.04347
G1 X113.559 Y74.648 E4.33887
G1 X112.7 Y74.648 E.04341
G1 X173.403 Y135.352 E4.33884
G1 X172.544 Y135.352 E.04341
M73 P27 R17
M73 Q27 S17
G1 X111.84 Y74.648 E4.33887
G1 X110.98 Y74.648 E.04347
G1 X171.684 Y135.352 E4.33887
G1 X170.825 Y135.352 E.04341
G1 X110.121 Y74.648 E4.33887
G1 X109.261 Y74.648 E.04347
M73 P28 R17
M73 Q28 S17
G1 X169.965 Y135.352 E4.33887
G1 X169.105 Y135.352 E.04347
G1 X108.402 Y74.648 E4.33884
G1 X107.542 Y74.648 E.04347
M73 P28 R16
M73 Q28 S16
G1 X168.246 Y135.352 E4.33887
G1 X167.386 Y135.352 E.04347
G1 X106.682 Y74.648 E4.33887
G1 X105.823 Y74.648 E.04341
M73 P29 R16
M73 Q29 S16
G1 X166.527 Y135.352 E4.33887
G1 X165.667 Y135.352 E.04347
G1 X104.963 Y74.648 E4.33887
G1 X104.104 Y74.648 E.04341
G1 X164.807 Y135.352 E4.33884
G1 X163.948 Y135.352 E.04341
M73 P30 R16
M73 Q30 S16
G1 X103.244 Y74.648 E4.33887
G1 X102.384 Y74.648 E.04347
G1 X163.088 Y135.352 E4.33887
G1 X162.229 Y135.352 E.04341
G1 X101.525 Y74.648 E4.33887
G1 X100.665 Y74.648 E.04347
M73 P31 R16
M73 Q31 S16
G1 X161.369 Y135.352 E4.33887
G1 X160.509 Y135.352 E.04347
G1 X99.806 Y74.648 E4.33884
G1 X98.946 Y74.648 E.04347
G1 X159.65 Y135.352 E4.33887
G1 X158.79 Y135.352 E.04347
M73 P32 R16
M73 Q32 S16
