; generated by PrusaSlicer 2.6.1+win64 on 2023-12-12 at 02:44:38 UTC


;
;
; 

; external perimeters extrusion width = 0.68mm
; perimeters extrusion width = 0.68mm
; infill extrusion width = 0.68mm
; solid infill extrusion width = 0.68mm
; top infill extrusion width = 0.60mm
; first layer extrusion width = 0.65mm

M73 P0 R53
M73 Q0 S53
M201 X1000 Y1000 Z200 E5000 ; sets maximum accelerations, mm/sec^2
M203 X200 Y200 Z12 E120 ; sets maximum feedrates, mm / sec
M204 S1250 T1250 ; sets acceleration (S) and retract acceleration (R), mm/sec^2
M205 X8.00 Y8.00 Z0.40 E4.50 ; sets the jerk limits, mm/sec
M205 S0 T0 ; sets the minimum extruding and travel feed rate, mm/sec
;TYPE:Custom
M862.3 P "MK3S" ; printer model check
M862.1 P0.6 ; nozzle diameter check
M115 U3.13.2 ; tell printer latest fw version
G90 ; use absolute coordinates
M83 ; extruder relative mode
M104 S215 ; set extruder temp
M140 S60 ; set bed temp
M190 S60 ; wait for bed temp
M109 S215 ; wait for extruder temp
G28 W ; home all without mesh bed level
G80 ; mesh bed leveling

G1 Z0.2 F720
G1 Y-3 F1000 ; go outside print area
G92 E0
G1 X60 E9 F1000 ; intro line
G1 X100 E12.5 F1000 ; intro line

G92 E0
M221 S95
G21 ; set units to millimeters
G90 ; use absolute coordinates
M83 ; use relative distances for extrusion
M900 K0.04 ; Filament gcode LA 1.5
M900 K18 ; Filament gcode LA 1.0

M107
;LAYER_CHANGE
;Z:0.2
;HEIGHT:0.2
;BEFORE_LAYER_CHANGE
G92 E0.0
;0.2


G1 E-.8 F2100
M73 P0 R52
G1 Z.4 F720
;AFTER_LAYER_CHANGE
;0.2
G1 X43.407 Y70.942 F10800
G1 Z.2 F720
G1 E.8 F1500
M204 S800
;TYPE:Skirt/Brim
;WIDTH:0.65
G1 F1200
G1 X44.972 Y70.163 E.08825
G1 X48.169 Y69.8 E.16242
G1 X131.273 Y65.305 E4.20113
G1 X135.005 Y65.305 E.18839
G1 X138.347 Y65.677 E.16974
G1 X204.973 Y81.779 E3.46003
G1 X206.204 Y82.47 E.07126
G1 X209.191 Y85.458 E.21327
G1 X209.955 Y87.301 E.10071
G1 X209.955 Y124.889 E1.8974
G1 X209.191 Y126.733 E.10076
G1 X206.204 Y129.72 E.21324
G1 X204.892 Y130.429 E.07528
G1 X138.233 Y144.331 E3.43727
G1 X135.107 Y144.691 E.15884
G1 X131.343 Y144.701 E.19
G1 X48.456 Y140.406 E4.18966
G1 X45.179 Y140.089 E.16619
M73 Q0 S52
G1 X43.575 Y139.322 E.08975
G1 X40.883 Y136.582 E.1939
G1 X40.146 Y134.985 E.08879
G1 X39.845 Y131.405 E.18135
G1 X39.845 Y78.26 E2.6827
G1 X40.126 Y75.164 E.15692
G1 X40.844 Y73.6 E.08687
G1 X43.345 Y71.006 E.18189
M204 S1000
;WIPE_START
G1 F8640
G1 X44.972 Y70.163 E-.42311
G1 X46.594 Y69.979 E-.37689
;WIPE_END
G1 Z.6 F720
G1 X44.98 Y73.807 F10800
G1 Z.2 F720
G1 E.8 F1500
M204 S800
G1 F1200
G1 X45.748 Y73.371 E.04458
G1 X46.357 Y73.14 E.03288
G1 X48.107 Y72.869 E.08939
G1 X53.071 Y72.853 E.25058
G1 X54.084 Y73.033 E.05194
G1 X54.557 Y73.092 E.02406
G1 X55.272 Y73.295 E.03752
G1 X55.984 Y73.635 E.03983
G1 X56.632 Y74.094 E.04008
G1 X57.31 Y74.805 E.04959
G1 X57.735 Y75.45 E.03899
G1 X58.052 Y76.185 E.04041
G1 X58.238 Y76.951 E.03979
G1 X58.274 Y77.577 E.03165
G1 X58.406 Y78.498 E.04697
G1 X58.453 Y79.363 E.04373
G1 X58.454 Y80.486 E.05669
G1 X58.419 Y81.292 E.04072
G1 X58.259 Y82.491 E.06106
G1 X58.257 Y84.761 E.11459
G1 X125.767 Y84.761 E3.40783
G1 X125.763 Y78.077 E.3374
M73 P1 R52
M73 Q1 S52
G1 X125.569 Y76.608 E.0748
G1 X125.569 Y74.312 E.1159
G1 X125.747 Y73.019 E.06588
G1 X125.808 Y72.299 E.03647
G1 X125.98 Y71.652 E.03379
G1 X126.265 Y70.994 E.0362
G1 X126.703 Y70.315 E.04079
G1 X127.434 Y69.561 E.05301
G1 X128.105 Y69.099 E.04112
G1 X128.661 Y68.833 E.03111
G1 X129.227 Y68.645 E.03011
G1 X130.005 Y68.534 E.03967
G1 X130.655 Y68.412 E.03338
G1 X131.452 Y68.354 E.04034
G1 X134.791 Y68.354 E.16855
G1 X136.588 Y68.597 E.09154
G1 X137.216 Y68.811 E.03349
G1 X137.979 Y69.21 E.04346
G1 X138.478 Y69.595 E.03181
G1 X138.961 Y70.081 E.03459
G1 X139.344 Y70.582 E.03183
G1 X139.764 Y71.405 E.04664
G1 X139.982 Y72.124 E.03793
G1 X140.184 Y73.706 E.08051
G1 X140.193 Y77.096 E.17112
G1 X139.998 Y78.554 E.07425
G1 X139.995 Y84.761 E.31332
G1 X202.619 Y84.761 E3.16119
G1 X203.74 Y84.986 E.05772
G1 X204.514 Y85.328 E.04271
G1 X205.14 Y85.748 E.03805
G1 X205.833 Y86.428 E.04901
G1 X206.342 Y87.16 E.04501
G1 X206.703 Y88.009 E.04657
G1 X206.882 Y88.854 E.0436
G1 X206.901 Y97.459 E.43437
G1 X206.719 Y98.457 E.05121
G1 X206.393 Y99.259 E.0437
G1 X205.922 Y99.985 E.04368
G1 X205.315 Y100.628 E.04464
G1 X204.641 Y101.119 E.04209
G1 X203.957 Y101.456 E.03849
G1 X203.279 Y101.664 E.0358
G1 X201.779 Y101.813 E.07609
G1 X201.109 Y101.974 E.03478
G1 X200.48 Y102.234 E.03436
G1 X199.901 Y102.59 E.03431
G1 X199.384 Y103.031 E.0343
G1 X198.944 Y103.546 E.03419
G1 X198.583 Y104.137 E.03496
G1 X198.327 Y104.756 E.03381
G1 X198.168 Y105.417 E.03432
G1 X198.115 Y106.095 E.03433
G1 X198.168 Y106.773 E.03433
G1 X198.327 Y107.434 E.03432
G1 X198.587 Y108.062 E.03431
G1 X198.942 Y108.642 E.03433
G1 X199.384 Y109.159 E.03434
G1 X199.901 Y109.601 E.03434
G1 X200.48 Y109.956 E.03428
G1 X201.109 Y110.216 E.03436
G1 X201.779 Y110.377 E.03478
G1 X203.28 Y110.526 E.07614
G1 X203.914 Y110.717 E.03342
G1 X204.55 Y111.017 E.0355
G1 X205.274 Y111.526 E.04467
G1 X205.889 Y112.163 E.0447
G1 X206.48 Y113.106 E.05618
G1 X206.769 Y113.911 E.04317
G1 X206.901 Y114.731 E.04193
G1 X206.901 Y123.148 E.42488
G1 X206.675 Y124.269 E.05773
G1 X206.333 Y125.043 E.04271
G1 X205.913 Y125.669 E.03805
G1 X205.233 Y126.362 E.04901
G1 X204.496 Y126.873 E.04527
G1 X203.575 Y127.255 E.05033
G1 X202.62 Y127.43 E.04901
G1 X139.997 Y127.43 E3.16114
G1 X140.002 Y131.398 E.2003
G1 X140.129 Y132.15 E.0385
G1 X140.19 Y132.972 E.04161
G1 X140.187 Y136.292 E.16759
G1 X139.956 Y137.91 E.0825
G1 X139.766 Y138.531 E.03278
G1 X139.47 Y139.162 E.03518
G1 X139.112 Y139.703 E.03275
G1 X138.511 Y140.342 E.04428
G1 X137.901 Y140.812 E.03887
G1 X137.184 Y141.179 E.04066
G1 X136.556 Y141.39 E.03344
G1 X134.769 Y141.651 E.09116
G1 X131.466 Y141.648 E.16673
G1 X130.174 Y141.466 E.06586
G1 X129.397 Y141.382 E.03945
G1 X128.76 Y141.191 E.03357
G1 X128.172 Y140.922 E.03264
G1 X127.608 Y140.563 E.03375
G1 X126.874 Y139.87 E.05096
G1 X126.335 Y139.111 E.04699
G1 X126.016 Y138.417 E.03856
G1 X125.833 Y137.789 E.03302
G1 X125.757 Y137.002 E.03991
G1 X125.579 Y135.728 E.06493
G1 X125.575 Y133.378 E.11863
G1 X125.645 Y132.611 E.03888
G1 X125.736 Y132.056 E.02839
G1 X125.767 Y131.572 E.02448
G1 X125.768 Y127.43 E.20908
G1 X58.259 Y127.43 E3.40778
G1 X58.374 Y128.275 E.04305
G1 X58.447 Y129.078 E.0407
G1 X58.449 Y130.954 E.0947
G1 X58.279 Y132.211 E.06403
G1 X58.229 Y133.195 E.04974
G1 X58.064 Y133.947 E.03886
G1 X57.719 Y134.764 E.04477
G1 X57.256 Y135.46 E.0422
G1 X56.591 Y136.141 E.04805
G1 X55.844 Y136.651 E.04566
G1 X54.792 Y137.074 E.05724
G1 X54.239 Y137.176 E.02839
G1 X53.604 Y137.223 E.03214
G1 X52.85 Y137.363 E.03871
G1 X51.948 Y137.394 E.04556
G1 X48.878 Y137.371 E.15497
G1 X48 Y137.297 E.04448
G1 X47.422 Y137.192 E.02965
G1 X46.832 Y137.13 E.02995
G1 X46.164 Y136.95 E.03492
G1 X45.533 Y136.671 E.03483
G1 X44.796 Y136.181 E.04468
G1 X43.913 Y135.249 E.06481
G1 X43.579 Y134.692 E.03278
G1 X43.338 Y134.143 E.03027
G1 X43.168 Y133.569 E.03022
G1 X43.079 Y132.726 E.04279
G1 X42.899 Y131.386 E.06825
G1 X42.902 Y128.569 E.1422
G1 X42.971 Y127.734 E.04229
G1 X43.075 Y127.147 E.03009
G1 X43.098 Y126.674 E.0239
G1 X43.099 Y83.529 E2.17791
G1 X43.083 Y82.872 E.03317
G1 X42.91 Y81.703 E.05965
G1 X42.899 Y78.33 E.17027
G1 X43.021 Y77.451 E.0448
G1 X43.083 Y76.795 E.03326
G1 X43.269 Y76.077 E.03744
G1 X43.554 Y75.426 E.03587
G1 X43.96 Y74.795 E.03788
G1 X44.501 Y74.206 E.04037
G1 X44.911 Y73.864 E.02695
M204 S1000
G1 X45.297 Y74.332 F10800
M204 S800
G1 F1200
G1 X46.023 Y73.913 E.04231
G1 X46.539 Y73.72 E.02781
G1 X48.175 Y73.472 E.08353
G1 X53.044 Y73.46 E.24578
G1 X53.991 Y73.633 E.04859
G1 X54.458 Y73.691 E.02375
G1 X55.077 Y73.87 E.03253
G1 X55.695 Y74.17 E.03468
G1 X56.254 Y74.569 E.03467
G1 X56.849 Y75.2 E.04378
G1 X57.211 Y75.757 E.03353
G1 X57.483 Y76.397 E.0351
G1 X57.64 Y77.062 E.03449
G1 X57.669 Y77.635 E.02896
G1 X57.801 Y78.545 E.04642
G1 X57.846 Y79.372 E.04181
G1 X57.847 Y80.48 E.05593
G1 X57.813 Y81.249 E.03886
G1 X57.661 Y82.297 E.05346
G1 X57.652 Y82.488 E.00965
G1 X57.65 Y85.368 E.14538
G1 X126.374 Y85.368 E3.46911
G1 X126.37 Y78.036 E.37011
G1 X126.176 Y76.588 E.07375
G1 X126.176 Y74.334 E.11378
G1 X126.351 Y73.085 E.06366
G1 X126.403 Y72.425 E.03342
G1 X126.548 Y71.867 E.0291
G1 X126.791 Y71.297 E.03128
G1 X127.163 Y70.712 E.03499
G1 X127.807 Y70.041 E.04695
G1 X128.391 Y69.635 E.0359
G1 X128.872 Y69.403 E.02696
G1 X129.391 Y69.23 E.02762
G1 X130.101 Y69.134 E.03617
G1 X130.75 Y69.012 E.03333
G1 X131.484 Y68.961 E.03714
G1 X134.771 Y68.961 E.16592
G1 X136.424 Y69.182 E.08418
G1 X136.957 Y69.36 E.02837
G1 X137.672 Y69.734 E.04073
G1 X138.088 Y70.061 E.02671
G1 X138.494 Y70.468 E.02902
G1 X138.818 Y70.887 E.02674
G1 X139.193 Y71.612 E.0412
G1 X139.384 Y72.228 E.03256
G1 X139.577 Y73.727 E.07629
G1 X139.586 Y77.076 E.16905
G1 X139.391 Y78.513 E.0732
G1 X139.388 Y85.368 E.34603
G1 X202.589 Y85.368 E3.19032
G1 X203.528 Y85.556 E.04834
M73 P2 R51
M73 Q2 S52
G1 X204.203 Y85.85 E.03716
G1 X204.739 Y86.204 E.03243
G1 X205.355 Y86.803 E.04337
G1 X205.798 Y87.431 E.03879
G1 X206.115 Y88.166 E.04041
G1 X206.281 Y88.948 E.04035
G1 X206.294 Y97.432 E.42826
G1 X206.144 Y98.261 E.04253
G1 X205.867 Y98.954 E.03767
G1 X205.429 Y99.63 E.04066
G1 X204.896 Y100.188 E.03895
G1 X204.309 Y100.611 E.03652
G1 X203.715 Y100.899 E.03332
G1 X203.134 Y101.074 E.03063
G1 X201.679 Y101.213 E.07378
G1 X200.921 Y101.395 E.03935
G1 X200.204 Y101.692 E.03918
G1 X199.543 Y102.097 E.03913
G1 X198.953 Y102.6 E.03914
G1 X198.451 Y103.188 E.03903
G1 X198.04 Y103.861 E.03981
G1 X197.748 Y104.568 E.03861
G1 X197.566 Y105.322 E.03915
G1 X197.506 Y106.095 E.03914
G1 X197.566 Y106.868 E.03914
G1 X197.748 Y107.622 E.03915
G1 X198.044 Y108.339 E.03916
G1 X198.449 Y109 E.03913
G1 X198.953 Y109.59 E.03917
G1 X199.543 Y110.093 E.03914
G1 X200.204 Y110.499 E.03916
G1 X200.921 Y110.795 E.03916
G1 X201.679 Y110.977 E.03935
G1 X203.134 Y111.116 E.07378
G1 X203.716 Y111.292 E.03069
G1 X204.264 Y111.553 E.03064
G1 X204.897 Y112.003 E.0392
G1 X205.428 Y112.559 E.03881
G1 X205.921 Y113.345 E.04684
G1 X206.175 Y114.04 E.03735
G1 X206.294 Y114.757 E.03669
G1 X206.294 Y123.118 E.42205
G1 X206.106 Y124.057 E.04834
G1 X205.812 Y124.731 E.03712
G1 X205.457 Y125.267 E.03245
G1 X204.859 Y125.883 E.04334
G1 X204.228 Y126.328 E.03898
G1 X203.429 Y126.665 E.04377
G1 X202.591 Y126.823 E.04305
G1 X139.389 Y126.823 E3.19037
G1 X139.395 Y131.45 E.23357
G1 X139.524 Y132.211 E.03896
G1 X139.583 Y132.983 E.03908
G1 X139.58 Y136.265 E.16567
G1 X139.448 Y137.094 E.04237
G1 X139.357 Y137.808 E.03633
G1 X139.194 Y138.329 E.02756
G1 X138.949 Y138.849 E.02902
G1 X138.651 Y139.308 E.02762
G1 X138.086 Y139.908 E.0416
G1 X137.599 Y140.285 E.03109
G1 X136.929 Y140.627 E.03797
G1 X136.391 Y140.806 E.02862
G1 X134.747 Y141.044 E.08385
G1 X131.529 Y141.044 E.16244
G1 X130.249 Y140.863 E.06526
G1 X129.492 Y140.781 E.03844
G1 X128.958 Y140.617 E.0282
G1 X128.476 Y140.396 E.02677
G1 X128.002 Y140.1 E.02821
G1 X127.313 Y139.45 E.04781
G1 X126.85 Y138.788 E.04078
G1 X126.579 Y138.189 E.03319
G1 X126.425 Y137.651 E.02825
G1 X126.361 Y136.933 E.03639
G1 X126.186 Y135.705 E.06261
G1 X126.183 Y133.392 E.11676
G1 X126.248 Y132.679 E.03614
G1 X126.34 Y132.125 E.02835
G1 X126.374 Y131.592 E.02696
G1 X126.375 Y126.823 E.24073
G1 X57.656 Y126.823 E3.46886
G1 X57.661 Y127.533 E.03584
G1 X57.77 Y128.338 E.04101
G1 X57.84 Y129.093 E.03828
G1 X57.842 Y130.933 E.09288
G1 X57.674 Y132.153 E.06217
G1 X57.624 Y133.137 E.04974
G1 X57.478 Y133.785 E.03353
G1 X57.172 Y134.499 E.03921
G1 X56.801 Y135.056 E.03378
G1 X56.177 Y135.695 E.04508
G1 X55.584 Y136.101 E.03628
G1 X54.65 Y136.483 E.05094
G1 X54.146 Y136.576 E.02587
G1 X53.525 Y136.62 E.03143
G1 X52.805 Y136.757 E.037
G1 X51.946 Y136.787 E.04339
G1 X48.894 Y136.764 E.15407
G1 X48.067 Y136.694 E.0419
G1 X47.506 Y136.59 E.0288
G1 X46.964 Y136.537 E.02749
G1 X46.346 Y136.371 E.0323
G1 X45.805 Y136.127 E.02996
G1 X45.21 Y135.736 E.03594
G1 X44.414 Y134.905 E.05809
G1 X44.125 Y134.428 E.02815
G1 X43.915 Y133.951 E.02631
G1 X43.758 Y133.425 E.02771
G1 X43.682 Y132.656 E.03901
G1 X43.506 Y131.365 E.06577
G1 X43.51 Y128.582 E.14048
G1 X43.575 Y127.799 E.03966
G1 X43.679 Y127.216 E.02989
G1 X43.705 Y126.689 E.02663
G1 X43.706 Y83.522 E2.17902
G1 X43.689 Y82.819 E.0355
G1 X43.517 Y81.678 E.05825
G1 X43.506 Y78.35 E.16799
G1 X43.625 Y77.52 E.04233
G1 X43.677 Y76.922 E.0303
G1 X43.85 Y76.254 E.03483
G1 X44.099 Y75.695 E.03089
G1 X44.425 Y75.186 E.03051
G1 X44.933 Y74.633 E.03791
G1 X45.228 Y74.389 E.01932
M204 S1000
G1 X45.611 Y74.859 F10800
M204 S800
G1 F1200
G1 X45.706 Y74.781 E.0062
G1 X46.294 Y74.456 E.03391
G1 X46.717 Y74.301 E.02274
G1 X48.242 Y74.076 E.07781
G1 X53.016 Y74.067 E.24099
G1 X53.896 Y74.233 E.0452
G1 X54.358 Y74.291 E.0235
G1 X54.879 Y74.445 E.02742
G1 X55.402 Y74.702 E.02942
G1 X55.873 Y75.043 E.02935
G1 X56.385 Y75.593 E.03793
G1 X56.685 Y76.061 E.02806
G1 X56.912 Y76.606 E.0298
G1 X57.042 Y77.168 E.02912
G1 X57.063 Y77.69 E.02637
G1 X57.195 Y78.593 E.04607
G1 X57.239 Y79.381 E.03984
G1 X57.24 Y80.474 E.05517
G1 X57.208 Y81.207 E.03704
G1 X57.056 Y82.237 E.05256
G1 X57.044 Y82.472 E.01188
G1 X57.042 Y85.975 E.17683
G1 X126.982 Y85.975 E3.53049
G1 X126.977 Y78.027 E.40121
M73 Q2 S51
G1 X126.963 Y77.801 E.01143
G1 X126.783 Y76.564 E.0631
G1 X126.783 Y74.356 E.11146
G1 X126.955 Y73.149 E.06154
G1 X126.998 Y72.547 E.03047
G1 X127.117 Y72.08 E.02433
G1 X127.32 Y71.596 E.02649
G1 X127.626 Y71.106 E.02916
G1 X128.183 Y70.519 E.04085
G1 X128.677 Y70.17 E.03053
G1 X129.116 Y69.959 E.02459
G1 X129.551 Y69.817 E.0231
G1 X130.194 Y69.734 E.03273
G1 X130.844 Y69.612 E.03338
G1 X131.514 Y69.567 E.0339
G1 X134.752 Y69.568 E.16345
G1 X136.262 Y69.767 E.07688
G1 X136.702 Y69.912 E.02339
G1 X137.323 Y70.232 E.03526
G1 X137.672 Y70.503 E.0223
G1 X138.049 Y70.882 E.02698
G1 X138.319 Y71.233 E.02235
G1 X138.639 Y71.861 E.03558
G1 X138.795 Y72.378 E.02726
G1 X138.97 Y73.748 E.06972
G1 X138.979 Y77.053 E.16683
G1 X138.797 Y78.286 E.06291
G1 X138.784 Y78.507 E.01118
G1 X138.78 Y85.975 E.37698
G1 X202.559 Y85.975 E3.21949
G1 X203.318 Y86.126 E.03906
G1 X203.895 Y86.374 E.0317
G1 X204.34 Y86.663 E.02678
G1 X204.879 Y87.18 E.0377
G1 X205.256 Y87.707 E.03271
G1 X205.528 Y88.323 E.03399
G1 X205.681 Y89.043 E.03716
G1 X205.687 Y97.406 E.42215
G1 X205.567 Y98.069 E.03401
G1 X205.339 Y98.654 E.03169
G1 X204.966 Y99.236 E.03489
G1 X204.517 Y99.712 E.03303
G1 X203.977 Y100.101 E.03359
G1 X203.477 Y100.34 E.02797
G1 X202.992 Y100.483 E.02552
G1 X201.581 Y100.612 E.07152
G1 X200.732 Y100.816 E.04408
G1 X199.928 Y101.149 E.04393
G1 X199.185 Y101.604 E.04398
G1 X198.523 Y102.17 E.04397
G1 X197.958 Y102.83 E.04386
G1 X197.498 Y103.585 E.04463
G1 X197.168 Y104.38 E.04345
G1 X196.965 Y105.227 E.04397
G1 X196.897 Y106.095 E.04395
G1 X196.965 Y106.963 E.04395
G1 X197.168 Y107.81 E.04397
G1 X197.502 Y108.615 E.04399
G1 X197.957 Y109.358 E.04398
G1 X198.523 Y110.02 E.04397
G1 X199.185 Y110.586 E.04397
G1 X199.928 Y111.041 E.04398
G1 X200.732 Y111.374 E.04393
G1 X201.581 Y111.578 E.04408
G1 X202.992 Y111.707 E.07152
G1 X203.477 Y111.85 E.02552
G1 X203.977 Y112.089 E.02797
G1 X204.517 Y112.478 E.03359
G1 X204.966 Y112.953 E.03299
G1 X205.364 Y113.587 E.03779
G1 X205.582 Y114.172 E.03151
G1 X205.687 Y114.783 E.03129
G1 X205.687 Y123.088 E.41923
G1 X205.535 Y123.847 E.03907
G1 X205.288 Y124.424 E.03168
G1 X204.998 Y124.869 E.02681
G1 X204.481 Y125.408 E.0377
G1 X203.955 Y125.784 E.03264
G1 X203.279 Y126.076 E.03717
G1 X202.56 Y126.215 E.03697
G1 X138.781 Y126.215 E3.21949
G1 X138.788 Y131.502 E.26688
M73 P3 R51
M73 Q3 S51
G1 X138.92 Y132.271 E.03939
G1 X138.977 Y133.018 E.03782
G1 X138.973 Y136.239 E.16259
G1 X138.847 Y137.005 E.03919
G1 X138.758 Y137.702 E.03547
G1 X138.623 Y138.123 E.02232
G1 X138.426 Y138.541 E.02333
G1 X138.188 Y138.913 E.02229
G1 X137.659 Y139.475 E.03896
G1 X137.297 Y139.757 E.02316
G1 X136.675 Y140.075 E.03526
G1 X136.235 Y140.218 E.02335
G1 X135.538 Y140.305 E.03546
G1 X134.72 Y140.437 E.04183
G1 X131.551 Y140.437 E.15997
G1 X130.322 Y140.26 E.06268
